!!!COM: Beethoven, Ludwig van
!!!CDT: 1770///-1827///
!!!ODT: 1825///-1826///
!!!OTL: String Quartet No. 13 in B-flat Major, Op. 130
!!!OPS: Op. 130
!!!OMV: Mvmt. 1
!!!OMD: Adagio ma non troppo - Allegro
!!!PDT: 1827///
!!!PPP: Vienna
!!!ODE: Dem F&uuml;rsten Nicolaus von Galitzin gewindmet
!!!MPD: 1826/03/21/
!!!MPD: 1827/04/22/
**kern	**dynam	**kern	**dynam	**kern	**dynam	**kern	**dynam
*staff4	*staff4	*staff3	*staff3	*staff2	*staff2	*staff1	*staff1
*Icello	*Icello	*Iviola	*Iviola	*Ivioln	*Ivioln	*Ivioln	*Ivioln
*>[A,A1,A,A2,B]	*>[A,A1,A,A2,B]	*>[A,A1,A,A2,B]	*>[A,A1,A,A2,B]	*>[A,A1,A,A2,B]	*>[A,A1,A,A2,B]	*>[A,A1,A,A2,B]	*>[A,A1,A,A2,B]
*>norep[A,A2,B]	*>norep[A,A2,B]	*>norep[A,A2,B]	*>norep[A,A2,B]	*>norep[A,A2,B]	*>norep[A,A2,B]	*>norep[A,A2,B]	*>norep[A,A2,B]
*>A	*>A	*>A	*>A	*>A	*>A	*>A	*>A
*clefF4	*clefF4	*clefC3	*clefC3	*clefG2	*clefG2	*clefG2	*clefG2
*k[b-e-]	*k[b-e-]	*k[b-e-]	*k[b-e-]	*k[b-e-]	*k[b-e-]	*k[b-e-]	*k[b-e-]
*B-:	*B-:	*B-:	*B-:	*B-:	*B-:	*B-:	*B-:
*M3/4	*M3/4	*M3/4	*M3/4	*M3/4	*M3/4	*M3/4	*M3/4
*MM54	*MM54	*MM54	*MM54	*MM54	*MM54	*MM54	*MM54
(4BB-/	p	(4B-/	p	(4B-/	p	(4B-/	p
=1	=1	=1	=1	=1	=1	=1	=1
4.AA/	.	4.A/	.	4.A/	.	4.A/	.
8AA-/L	.	8A-/L	.	8A-/L	.	8A-/L	.
8GG/	.	8G/)	.	8G/	.	8G/	.
8CC/J	.	8G/J	.	8c/J)	.	8e-/J)	.
=2	=2	=2	=2	=2	=2	=2	=2
8DD/L	p	4F/	p	(4B-/	p	(4d/	p
8EE-/	.	.	.	.	.	.	.
8FF/J)	.	8F/	.	8An/)	.	8c/)	.
8r	.	8r	.	8r	.	8r	.
(8F\L	.	4F/	.	(4d/	.	(4b-/	.
8BB-\J	.	.	.	.	.	.	.
=3	=3	=3	=3	=3	=3	=3	=3
4.C/	.	4.F/	.	4.e-/	.	4.a/	.
8D\L	.	(8F/L	.	8Bn/L	.	8a-/L	.
8E-\	.	8G/	.	8c/	.	8g/	.
8F\J)	.	8F/J)	.	8c/J) 8e-/	.	8an/J)	.
=4	=4	=4	=4	=4	=4	=4	=4
(4F\	p	[4F/	p	(4c/ 4e-/	p	(4a/	p
8BB-/)	.	8F/]	.	8B-/) 8d/	.	8b-/)	.
8r	.	8r	.	8r	.	8r	.
8r	.	8r	.	8r	.	8r	.
8AAn/	.	8F/	.	8c/	.	8cc\	.
=5	=5	=5	=5	=5	=5	=5	=5
(4AA/	.	[4F/	.	(4c/	.	(4cc\	.
8GG/)	.	8F/]	.	8B-/)	.	8dd\)	.
8r	.	8r	.	8r	.	8r	.
8r	.	8r	.	8r	.	8r	.
8GG/	.	8C/ 8G/	.	8B-/	.	8een\	.
=6	=6	=6	=6	=6	=6	=6	=6
(4GG/	f	4C/ 4G/	f	4B-/	f	[2een\	f
4CC/)	.	[4g\	.	[4b-/	.	.	.
(8C/L	.	(8g\L]	.	(8.b-/L]	.	(8ee\L]	.
8FF/J)	.	16en\L	.	.	.	16gg\L	.
.	.	16f\JJ)	.	16a/Jk)	.	16ff\JJ)	.
=7	=7	=7	=7	=7	=7	=7	=7
8FF/	p	4f\	p	4a/	p	4ff\	p
*clefC4	*clefC4	*	*	*	*	*	*
(8f'\L	.	.	.	.	.	.	.
8f'\	.	4r	.	4r	.	4r	.
8f'\)	.	.	.	.	.	.	.
(8f\	.	4r	.	4r	.	4r	.
8f#\J)	.	.	.	.	.	.	.
=8	=8	=8	=8	=8	=8	=8	=8
(8g\L	.	2.r	.	8r	.	2.r	.
16d\L	.	.	.	(8Bn/L	.	.	.
16fn\JJ	.	.	.	.	.	.	.
8e-\L	.	.	.	8c/	.	.	.
16Bn\L	.	.	.	8d/	.	.	.
16d\JJ	.	.	.	.	.	.	.
8c\L	.	.	.	8e-/	.	.	.
8B-\J)	.	.	.	8en/J)	.	.	.
=9	=9	=9	=9	=9	=9	=9	=9
(8B-/L	.	2.r	.	(8f'/L	.	2.r	.
8A/	.	.	.	8f'/	.	.	.
8G/	.	.	.	8f'/	.	.	.
8F/	.	.	.	8f'/)	.	.	.
8E-/	.	.	.	(8f/	.	.	.
8D/J)	.	.	.	8f#/J	.	.	.
=10	=10	=10	=10	=10	=10	=10	=10
*clefF4	*clefF4	*	*	*	*	*	*
(8E-\L	.	8r	.	8g/L	.	2.r	.
8BBn\	.	(8F'/L	.	16d/L	.	.	.
.	.	.	.	16fn/JJ	.	.	.
8C\	.	8F'/	.	8e-/L	.	.	.
8D\	.	8F'/)	.	16Bn/L	.	.	.
.	.	.	.	16d/JJ	.	.	.
8E-\	.	8G/	.	8c/L	.	.	.
8En\J)	.	8G/J	.	8B-/J)	.	.	.
=11	=11	=11	=11	=11	=11	=11	=11
(8En\L	.	(8G/L	.	(8B-/L	.	8r	.
8F\	.	8F/)	.	8A/	.	(8ff'\L	.
8E-\	.	(8F'/	.	8g/	.	8ff'\	.
8D\J)	.	8F'/	.	8f/	.	8bb-'\)	.
8DD/L	.	8F'/)	.	8a-/	.	(8bb-\	.
8DD/J	.	(8F/J	.	8A-/J)	.	8bbn\J	.
=12	=12	=12	=12	=12	=12	=12	=12
(8EE-/L	.	8C/L)	.	(8G/	.	8ccc\L	.
8EEn/	.	(8G/	.	4c/)	.	16gg\L	.
.	.	.	.	.	.	16bb-\JJ	.
8FF/	.	8F/	.	.	.	8aa-\L	.
8GG/	.	8B-/	.	4cc\	.	16een\L	.
.	.	.	.	.	.	16gg\JJ	.
8AA-/	.	8A-/	.	.	.	8ff\L	.
8AAn/J)	.	8G-/J)	.	8cc\	.	8ee-\J)	.
=13	=13	=13	=13	=13	=13	=13	=13
(8AA/L	.	(8G-/L	.	(8cc\L	.	(8ee-\L	.
8BB-/J)	.	8F/	.	8b-\J)	.	8dd\	.
8BB-'/L	.	8E-/	.	8g-/ 8an/	.	8cc\	.
(8BB-/J	.	8D/	.	4f/	.	8b-\	.
8C/L	.	8E-/	.	.	.	8a\	.
8D/J)	.	8F/J)	.	[8B-/	.	8a-\J)	.
=14	=14	=14	=14	=14	=14	=14	=14
(8E-\L	p	(8.Gn/L	p	(8B-/L]	p	(8g\L	p
8G\	.	.	.	8b-/	.	16ff\L	.
.	.	16B-/Jk	.	.	.	16ee-\JJ)	.
8G-\	.	8c/L	.	8a/	.	4ee-;\	.
8F;\J)	.	8An;/J)	.	8cc;/J)	.	.	.
*MM120	*MM120	*MM120	*MM120	*MM120	*MM120	*MM120	*MM120
4r	.	4r	.	4r	.	16dd\LL	.
.	.	.	.	.	.	16ee-\	.
.	.	.	.	.	.	16dd\	.
.	.	.	.	.	.	16cc\JJ	.
=15	=15	=15	=15	=15	=15	=15	=15
*met(C)	*met(C)	*met(C)	*met(C)	*met(C)	*met(C)	*met(C)	*met(C)
*M4/4	*M4/4	*M4/4	*M4/4	*M4/4	*M4/4	*M4/4	*M4/4
1r	.	1r	.	4r	.	16b-/LL	.
.	.	.	.	.	.	16cc/	.
.	.	.	.	.	.	16b-/	.
.	.	.	.	.	.	16a/JJ	.
.	.	.	.	4b-\	.	16g/LL	.
.	.	.	.	.	.	16a/	.
.	.	.	.	.	.	16g/	.
.	.	.	.	.	.	16f/JJ	.
.	.	.	.	4b-\	.	16e-/LL	.
.	.	.	.	.	.	16f/	.
.	.	.	.	.	.	16e-/	.
.	.	.	.	.	.	16d/JJ	.
.	.	.	.	8b-\L	.	16c/LL	.
.	.	.	.	.	.	16d/	.
.	.	.	.	8b-\J	.	16c/	.
.	.	.	.	.	.	16B-/JJ	.
=16	=16	=16	=16	=16	=16	=16	=16
2.F\	p	2.c\ 2.a\	p	2.ee-\	p	16B-/LL	p
.	.	.	.	.	.	16A/	.
.	.	.	.	.	.	16G/	.
.	.	.	.	.	.	16A/JJ	.
.	.	.	.	.	.	16c/LL	.
.	.	.	.	.	.	16f/	.
.	.	.	.	.	.	16a/	.
.	.	.	.	.	.	16b-/JJ	.
.	.	.	.	.	.	16cc\LL	.
.	.	.	.	.	.	16bn\	.
.	.	.	.	.	.	16cc\	.
.	.	.	.	.	.	16dd\JJ	.
4r	.	4r	.	4r	.	16ee-\LL	.
.	.	.	.	.	.	16ff\	.
.	.	.	.	.	.	16ee-\	.
.	.	.	.	.	.	16dd\JJ	.
=17	=17	=17	=17	=17	=17	=17	=17
1r	.	1r	.	4r	.	16cc\LL	.
.	.	.	.	.	.	16dd\	.
.	.	.	.	.	.	16cc\	.
.	.	.	.	.	.	16b-\JJ	.
.	.	.	.	4cc\	.	16a/LL	.
.	.	.	.	.	.	16b-/	.
.	.	.	.	.	.	16a/	.
.	.	.	.	.	.	16g/JJ	.
.	.	.	.	4cc\	.	16f/LL	.
.	.	.	.	.	.	16g/	.
.	.	.	.	.	.	16f/	.
.	.	.	.	.	.	16e-/JJ	.
.	.	.	.	8cc\L	.	16d/LL	.
.	.	.	.	.	.	16e-/	.
.	.	.	.	8cc\J	.	16d/	.
.	.	.	.	.	.	16c/JJ	.
=18	=18	=18	=18	=18	=18	=18	=18
2.D\	p	2.b-\	p	[2ff\	p	16c/LL	p
.	.	.	.	.	.	16B-/	.
.	.	.	.	.	.	16A/	.
.	.	.	.	.	.	16B-/JJ	.
.	.	.	.	.	.	16d/LL	.
.	.	.	.	.	.	16f/	.
.	.	.	.	.	.	16b-/	.
.	.	.	.	.	.	16dd/JJ	.
.	.	.	.	16ff\LL]	.	16ff\LL	.
.	.	.	.	16ee-\	.	16gg\	.
.	.	.	.	16dd\	.	16ff\	.
.	.	.	.	16cc\JJ	.	16ee-\JJ	.
16B-\LL	.	16d\LL	.	16b-\LL	.	16dd\LL	.
16A\	.	16c\	.	16cc\	.	16ee-\	.
16B-\	.	16d\	.	16b-\	.	16dd\	.
16c\JJ	.	16e-\JJ	.	16a\JJ	.	16cc\JJ	.
=19	=19	=19	=19	=19	=19	=19	=19
16d\LL	.	16f\LL	.	16g/LL	.	16b-\LL	.
16e-\	.	16g\	.	16f/	.	16a\	.
16d\	.	16f\	.	16g/	.	16b-\	.
16c\JJ	.	16e-\JJ	.	16a/JJ	.	16cc\JJ	.
16B-\LL	.	16d/LL	.	16b-\LL	.	16dd\LL	.
16A\	.	16c/	.	16cc\	.	16ee-\	.
16G\	.	16B-/	.	16dd\	.	16ff\	.
16F\JJ	.	16A/JJ	.	16ee-\JJ	.	16gg\JJ	.
16E-/LL	.	16G/LL	.	16ff\LL	.	16aa\LL	.
16D/	.	16F/	.	16gg\	.	16bb-\	.
16C/	.	16E-/	.	16aa\	.	16ccc\	.
16BB-/JJ	.	16D/JJ	.	16bb-\JJ	.	16ddd\JJ	.
8AA'/L	.	8C'/L	.	8ccc'\L	.	8eee-'\L	.
8BB-'/J	.	8B-'/J	.	8bb-'\J	.	8ddd'\J	.
=20	=20	=20	=20	=20	=20	=20	=20
*M3/4	*M3/4	*M3/4	*M3/4	*M3/4	*M3/4	*M3/4	*M3/4
*MM54	*MM54	*MM54	*MM54	*MM54	*MM54	*MM54	*MM54
4FF'/	f	4c'\	f	4aa'\	f	4fff'\	f
4r	.	4r	.	4r	.	4r	.
(4FF/	.	4r	.	4r	.	4r	.
=21	=21	=21	=21	=21	=21	=21	=21
4.EEn/	.	4r	.	(4c/	.	2.r	.
.	.	(8G/L	.	4.B-/	.	.	.
8EE-/L	.	8G-/	.	.	.	.	.
8DD/	.	8F/	.	.	.	.	.
8BB-/J)	.	8D-/J)	.	8g/)	.	.	.
=22	=22	=22	=22	=22	=22	=22	=22
(4AA/	.	(8C/L	.	(4f/	.	4r	.
.	.	8Bn/	.	.	.	.	.
8GG/)	.	8c/	.	8en/)	.	4r	.
8r	.	8B-/J)	.	8r	.	.	.
8FF/L	.	4F/	.	[4c/	.	(4a/	.
8FF/J	.	.	.	.	.	.	.
=23	=23	=23	=23	=23	=23	=23	=23
8FF/L	.	(4.En/	.	(8c/L]	.	4g/)	.
8FF/	.	.	.	8B-/	.	.	.
8FF/	.	.	.	8G/	.	(4ccc\	.
8FF/	.	8E-/L	.	8A/J	.	.	.
8FF/	.	8D/	.	8B-/L	.	[4bb-\)	.
8FF/J	.	8En/J)	.	[8g/J) [8b-/	.	.	.
=24	=24	=24	=24	=24	=24	=24	=24
*MM120	*MM120	*MM120	*MM120	*MM120	*MM120	*MM120	*MM120
8FF/L	.	(8En/	.	(8g/L] 8b-/]	.	(8bb-\L]	.
[8FF/	.	4F/)	.	8B-/	.	8dd\	.
8FF/J]	.	.	.	8A/J)	.	8cc\J)	.
8r;	.	8r;	.	8r;	.	8r;	.
4r	.	16a\LL	.	16ccc\LL	.	16cc/LL	.
.	.	16g#\	.	16ddd\	.	16bn/	.
.	.	16a\	.	16ccc\	.	16cc/	.
.	.	16gn\JJ	.	16bb-\JJ	.	16b-/JJ	.
=25	=25	=25	=25	=25	=25	=25	=25
*met(C)	*met(C)	*met(C)	*met(C)	*met(C)	*met(C)	*met(C)	*met(C)
*M4/4	*M4/4	*M4/4	*M4/4	*M4/4	*M4/4	*M4/4	*M4/4
4r	.	16f\LL	.	16aa\LL	.	4a/	.
.	.	16en\	.	16bb-\	.	.	.
.	.	16f\	.	16aa\	.	.	.
.	.	16e\JJ	.	16gg\JJ	.	.	.
*clefC4	*clefC4	*	*	*	*	*	*
4f\	.	16d\LL	.	16ff\LL	.	4ff\	.
.	.	16e\	.	16gg\	.	.	.
.	.	16d\	.	16ff\	.	.	.
.	.	16c\JJ	.	16een\JJ	.	.	.
4f\	.	16B-/LL	.	16dd\LL	.	4ff\	.
.	.	16c/	.	16ee\	.	.	.
.	.	16B-/	.	16dd\	.	.	.
.	.	16A/JJ	.	16cc\JJ	.	.	.
8f\L	.	16G/LL	.	16b-\LL	.	8ff\L	.
.	.	16A/	.	16cc\	.	.	.
8f\J	.	16G/	.	16b-\	.	8ff\J	.
.	.	16F/JJ	.	16a\JJ	.	.	.
=26	=26	=26	=26	=26	=26	=26	=26
2.c\	p	16F/LL	p	16a/LL	p	2.bb-\	p
.	.	16En/	.	16g/	.	.	.
.	.	16D/	.	16f/	.	.	.
.	.	16E/JJ	.	16g/JJ	.	.	.
.	.	16G\LL	.	16b-\LL	.	.	.
.	.	16c\	.	16een\	.	.	.
.	.	16en\	.	16gg\	.	.	.
.	.	16f\JJ	.	16aa\JJ	.	.	.
.	.	16g/LL	.	16bb-\LL	.	.	.
.	.	16c/	.	16en/	.	.	.
.	.	16En/	.	16g/	.	.	.
.	.	16F/JJ	.	16a/JJ	.	.	.
4r	.	16G/LL	.	16b-/LL	.	4r	.
.	.	16A/	.	16cc/	.	.	.
.	.	16G/	.	16b-/	.	.	.
.	.	16f/JJ	.	16a/JJ	.	.	.
=27	=27	=27	=27	=27	=27	=27	=27
4r	.	16en\LL	.	16g/LL	.	4r	.
.	.	16f\	.	16a/	.	.	.
.	.	16e\	.	16g/	.	.	.
.	.	16d\JJ	.	16f/JJ	.	.	.
*clefF4	*clefF4	*	*	*	*	*	*
4c\	.	16c\LL	.	16en/LL	.	4gg\	.
.	.	16d\	.	16f/	.	.	.
.	.	16c\	.	16e/	.	.	.
.	.	16B-\JJ	.	16d/JJ	.	.	.
4c\	.	16A/LL	.	16c/LL	.	4gg\	.
.	.	16B-/	.	16d/	.	.	.
.	.	16A/	.	16c/	.	.	.
.	.	16G/JJ	.	16B-/JJ	.	.	.
8c\L	.	16F/LL	.	16A/LL	.	8gg\L	.
.	.	16F/	.	16b-/	.	.	.
8c\J	.	16F/	.	16a/	.	8gg\J	.
.	.	16En/JJ	.	16g/JJ	.	.	.
=28	=28	=28	=28	=28	=28	=28	=28
2.A\	p	16B-/LL	p	16g/LL	p	2.ccc\	p
.	.	16A/	.	16f/	.	.	.
.	.	16G/	.	16en/	.	.	.
.	.	16A/JJ	.	16f/JJ	.	.	.
.	.	16F/LL	.	16a\LL	.	.	.
.	.	16A/	.	16cc\	.	.	.
.	.	16c/	.	16ff\	.	.	.
.	.	16f/JJ	.	16aa\JJ	.	.	.
.	.	16c/LL	.	16ccc\LL	.	.	.
.	.	16B-/	.	16dd\	.	.	.
.	.	16A/	.	16cc\	.	.	.
.	.	16G/JJ	.	16b-\JJ	.	.	.
16c\LL	.	16F/LL	.	16a/LL	.	4r	.
16d\	.	16F/	.	16b-/	.	.	.
16c\	.	16F/	.	16a/	.	.	.
16B-\JJ	.	16En/JJ	.	16g/JJ	.	.	.
=29	=29	=29	=29	=29	=29	=29	=29
16A\LL	.	16C/LL	.	16f/LL	.	1r	.
16B-\	.	16C/	.	16en/	.	.	.
16A\	.	16D/	.	16f/	.	.	.
16G\JJ	.	16En/JJ	.	16g/JJ	.	.	.
16F\LL	.	16F/LL	.	16a\LL	.	.	.
16En\	.	16G/	.	16b-\	.	.	.
16D\	.	16A/	.	16cc\	.	.	.
16C\JJ	.	16B-/JJ	.	16dd\JJ	.	.	.
16BB-/LL	.	16c\LL	.	16een\LL	.	.	.
16AA/	.	16d\	.	16ff\	.	.	.
16GG/	.	16en\	.	16gg\	.	.	.
16FF/JJ	.	16f\JJ	.	16aa\JJ	.	.	.
8EEn/L	.	8g\L	.	8bb-\L	.	.	.
8FF/J	.	8f\J	.	8aa\J	.	.	.
=30	=30	=30	=30	=30	=30	=30	=30
16F\LL	.	16c\LL	.	16a\LL	.	2r	.
16B-\	.	16B-\	.	16g\	.	.	.
16A\	.	16c\	.	16a\	.	.	.
16G\JJ	.	16d\JJ	.	16b-\JJ	.	.	.
16F\LL	.	16e-\LL	.	16cc\LL	.	.	.
16E-\	.	16f\	.	16dd\	.	.	.
16D\	.	16g\	.	16ee-\	.	.	.
16C\JJ	.	16a\JJ	.	16ff\JJ	.	.	.
16BB-/LL	.	16b-\LL	.	16gg\LL	.	4r	.
16AA/	.	16cc\	.	16aa\	.	.	.
16GG/	.	16dd\	.	16bb-\	.	.	.
16FF/JJ	.	16ee-\JJ	.	16ccc\JJ	.	.	.
8FF/L	.	8ff\L	.	8gg\L	.	16ddd\LL	.
.	.	.	.	.	.	16eee-\	.
8F/J	.	8ee-\J	.	8aa\J	.	16ddd\	.
.	.	.	.	.	.	16ccc\JJ	.
=31	=31	=31	=31	=31	=31	=31	=31
4B-\	.	16D/LL	.	16B-/LL	.	16bb-\LL	.
.	.	16C/	.	16A/	.	16ccc\	.
.	.	16D/	.	16B-/	.	16bb-\	.
.	.	16E-/JJ	.	16c/JJ	.	16aa\JJ	.
4BB-/	.	16F/LL	.	16d/LL	.	16gg\LL	.
.	.	16E-/	.	16c/	.	16aa\	.
.	.	16F/	.	16d/	.	16gg\	.
.	.	16G/JJ	.	16e-/JJ	.	16ff\JJ	.
4BB-/	.	16A/LL	.	16f/LL	.	16ee-\LL	.
.	.	16G/	.	16e-/	.	16ff\	.
.	.	16A/	.	16f/	.	16ee-\	.
.	.	16B-/JJ	.	16g/JJ	.	16dd\JJ	.
8BB-/L	.	16c/LL	.	16a/LL	.	16cc\LL	.
.	.	16B-/	.	16g/	.	16dd\	.
8BB-/J	.	16c/	.	16a/	.	16cc\	.
.	.	16d/JJ	.	16b-/JJ	.	16b-\JJ	.
=32	=32	=32	=32	=32	=32	=32	=32
2.E-\	p	16G/LL	p	16cc\LL	p	16b-/LL	p
.	.	16F/	.	16cc\	.	16a/	.
.	.	16En/	.	16cc\	.	16g/	.
.	.	16F/JJ	.	16cc\JJ	.	16a/JJ	.
.	.	16A\LL	.	16cc/LL	.	16cc\LL	.
.	.	16c\	.	16f/	.	16ff\	.
.	.	16f\	.	16f/	.	16aa\	.
.	.	16g\JJ	.	16f/JJ	.	16bb-\JJ	.
.	.	16a\LL	.	16f/LL	.	16ccc\LL	.
.	.	16g\	.	16f/	.	16bb-\	.
.	.	16a\	.	16f/	.	16ccc\	.
.	.	16b-\JJ	.	16f/JJ	.	16ddd\JJ	.
4r	.	16cc\LL	.	16f/LL	.	16eee-\LL	.
.	.	16dd\	.	16G/	.	16fff\	.
.	.	16cc\	.	16A/	.	16eee-\	.
.	.	16b-\JJ	.	16B-/JJ	.	16ddd\JJ	.
=33	=33	=33	=33	=33	=33	=33	=33
4r	.	16a\LL	.	16c/LL	.	16ccc\LL	.
.	.	16b-\	.	16B-/	.	16ddd\	.
.	.	16a\	.	16c/	.	16ccc\	.
.	.	16g\JJ	.	16d/JJ	.	16bb-\JJ	.
4C/	.	16f\LL	.	16e-/LL	.	16aa\LL	.
.	.	16g\	.	16d/	.	16bb-\	.
.	.	16f\	.	16e-/	.	16aa\	.
.	.	16e-\JJ	.	16f/JJ	.	16gg\JJ	.
4C/	.	16d\LL	.	16g/LL	.	16ff\LL	.
.	.	16e-\	.	16f/	.	16gg\	.
.	.	16d\	.	16g/	.	16ff\	.
.	.	16c\JJ	.	16a/JJ	.	16ee-\JJ	.
8C/L	.	16B-/LL	.	16b-/LL	.	16dd\LL	.
.	.	16c/	.	16a/	.	16ee-\	.
8C/J	.	16B-/	.	16b-/	.	16dd\	.
.	.	16A/JJ	.	16cc/JJ	.	16cc\JJ	.
=34	=34	=34	=34	=34	=34	=34	=34
2F\	p	16e-\LL	p	16g/LL	p	16cc\LL	p
.	.	16d\	.	16f/	.	16b-\	.
.	.	16c\	.	16e-/	.	16a\	.
.	.	16d\JJ	.	16f/JJ	.	16b-\JJ	.
.	.	16f\LL	.	16b-/LL	.	16dd\LL	.
.	.	16d\	.	16f/	.	16ff\	.
.	.	16c\	.	16e-/	.	16aa\	.
.	.	16B-\JJ	.	16d/JJ	.	16bb-\JJ	.
4F\	.	16e-\LL	.	16g/LL	.	16cc\LL	.
.	.	16d\	.	16f/	.	16b-\	.
.	.	16c\	.	16e-/	.	16a\	.
.	.	16d\JJ	.	16f/JJ	.	16b-\JJ	.
8F\L	.	16f\LL	.	16a-/LL	.	16dd\LL	.
.	.	16d\	.	16f/	.	16ff\	.
8F\J	.	16c\	.	16e-/	.	16gg\	.
.	.	16Bn\JJ	.	16d/JJ	.	16aa-\JJ	.
=35	=35	=35	=35	=35	=35	=35	=35
2F\	.	16F/LL	.	16a-/LL	.	16cc\LL	.
.	.	16A-/	.	16d/	.	16bn\	.
.	.	16d/	.	16f/	.	16a#\	.
.	.	16d/JJ	.	16f/JJ	.	16b\JJ	.
.	.	16f\LL	.	16a-/LL	.	16dd\LL	.
.	.	16d\	.	16f/	.	16ff\	.
.	.	16c\	.	16e-/	.	16gg\	.
.	.	16Bn\JJ	.	16d/JJ	.	16aa-\JJ	.
4E-\	.	16G/LL	.	16c/LL	.	16gg\LL	.
.	.	16G/	.	16g/	.	16aan\	.
.	.	16G/	.	16g/	.	16bbn\	.
.	.	16G/JJ	.	16g/JJ	.	16ccc\JJ	.
8D/L	.	16f\LL	.	16g/LL	.	16ddd\LL	.
.	.	16f\	.	16g/	.	16eee-\	.
8C/J	.	16e-\	.	16g/	.	16fff\	.
.	.	16e-\JJ	.	16g/JJ	.	16ggg\JJ	.
=36	=36	=36	=36	=36	=36	=36	=36
4D\	.	16B-/LL	.	16b-/LL	.	8fff'\L	.
.	.	16B-/	.	16f/	.	.	.
.	.	16B-/	.	16f/	.	8ggg'\	.
.	.	16B-/JJ	.	16f/JJ	.	.	.
8C/L	.	16f/LL	.	16e-/LL	.	8aaa'\	.
.	.	16f/	.	16e-/	.	.	.
8BB-/J	.	16F/	.	16d/	.	8bbb-'\J	.
.	.	16F/JJ	.	16d/JJ	.	.	.
4F\	.	16B-/LL	.	16d-/LL	.	16gg\LL	.
.	.	16B-/	.	16d-/	.	16ff\	.
.	.	16B-/	.	16dn/	.	16een\	.
.	.	16B-/JJ	.	16d/JJ	.	16ff\JJ	.
4FF/	.	16A/LL	.	16e-/LL	.	16aa\LL	.
.	.	16A/	.	16e-/	.	16ccc\	.
.	.	16c/	.	16e-/	.	16eee-\	.
.	.	16c/JJ	.	16e-/JJ	.	16aa\JJ	.
=37	=37	=37	=37	=37	=37	=37	=37
8BB-'/L	f	8B-'/L	f	8d/	f	8ddd'\L	f
8AA'/	.	8F'/	.	8r	.	(16ccc#\L	.
.	.	.	.	.	.	16eee-\JJ	.
8BB-'/	.	8F'/	.	4r	.	8ddd'\L)	.
8C'/J	.	8E-'/J	.	.	.	(16aa\L	.
.	.	.	.	.	.	16cccn\JJ	.
8D\L	.	8F/L	.	2r	.	8bb-'\L)	.
8D\	.	8B-/	.	.	.	(16ff\L	.
.	.	.	.	.	.	16aa-\JJ	.
8E-\	.	8B-/	.	.	.	8gg'\L)	.
8F\J	.	8B-/J	.	.	.	(16dd\L	.
.	.	.	.	.	.	16ff\JJ	.
=38	=38	=38	=38	=38	=38	=38	=38
4G\	p	8B-/	p	8G/	p	4ee-'\)	p
.	.	8d'\L	.	(16Bn/LL	.	.	.
.	.	.	.	16d/JJ	.	.	.
4r	.	8e-'\	.	8c'/L)	.	4r	.
.	.	8en'\J	.	(16G/L	.	.	.
.	.	.	.	16B-/JJ	.	.	.
2r	.	8f\L	.	8A'/)	.	8r	.
.	.	8g\	.	8b-'\L	.	(16een\LL	.
.	.	.	.	.	.	16gg\JJ	.
.	.	8a\	.	8cc'\J	.	8ff'\L)	.
.	.	8f\J	.	(16a\LL	.	(16cc\L	.
.	.	.	.	16cc\JJ)	.	16ee-\JJ)	.
=39	=39	=39	=39	=39	=39	=39	=39
8BB-'/L	f	8B-'/L	f	8b-\	f	8dd'\L	f
8AA'/	.	8F'/	.	8r	.	(16ccc#\L	.
.	.	.	.	.	.	16eee-\J	.
8BB-'/J	.	8F'/J	.	8r	.	8ddd'\J)	.
8r	.	8c'\L	.	(16aa\LL	.	8e-'/L	.
.	.	.	.	16ccc\JJ	.	.	.
8r	.	8d'\J	.	8bb-'\)	.	8f'/J	.
8D'\L	.	8r	.	8B-/L	.	(16ff\LL	.
.	.	.	.	.	.	16aa-\JJ	.
8E-'\J	.	8r	.	8B-/J	.	8gg'\)	.
8r	.	8f'\	.	(16dd\LL	.	8b-\	.
.	.	.	.	16ff\JJ	.	.	.
=40	=40	=40	=40	=40	=40	=40	=40
8r	.	8g'\	.	8ee-'\)	.	8b-\	.
8D'\L	.	(16Bn\LL	.	8r	.	8r	.
.	.	16d\JJ	.	.	.	.	.
8E-'\J	.	8c'\)	.	8r	.	4r	.
8En'\L	.	8c'\L	.	(16g/LL	.	.	.
.	.	.	.	16b-/JJ	.	.	.
8F'\J	.	8c'\J	.	8a'/)	.	8r	.
8r	.	8g'\L	.	8b-'/L	.	(16een\LL	.
.	.	.	.	.	.	16gg\JJ	.
8r	.	8a'\J	.	8cc'/J	.	8ff'\L)	.
8A\	.	16c\LL	.	8f/	.	8ff'\J	.
.	.	16e-\JJ	.	.	.	.	.
=41	=41	=41	=41	=41	=41	=41	=41
4B-\	f	(16d\LL	f	4f/	f	4ddd\	f
.	.	16c\	.	.	.	.	.
.	.	16B-\	.	.	.	.	.
.	.	16A\JJ	.	.	.	.	.
4r	.	16B-\LL	.	4r	.	4r	.
.	.	16c\	.	.	.	.	.
.	.	16d\	.	.	.	.	.
.	.	16e-\JJ)	.	.	.	.	.
.	.	.	.	ggq/LL	.	.	.
.	.	.	.	ffq/	.	.	.
.	.	.	.	eenq/JJ	.	.	.
(16AA/LL	.	8f'\L	.	4ff\	.	(16cccn\LL	.
16GG/	.	.	.	.	.	16bb-\	.
16FF/	.	(16f\L	.	.	.	16aa\	.
16EEn/JJ	.	16g\JJ	.	.	.	16gg\JJ	.
16FF/LL	.	16f\LL	.	4r	.	16aa\LL	.
16GG/	.	16e-\	.	.	.	16bb-\	.
16AA/	.	16d\	.	.	.	16ccc\	.
16BB-/JJ)	.	16c\JJ)	.	.	.	16ddd\JJ)	.
=42	=42	=42	=42	=42	=42	=42	=42
.	.	.	.	gq/LL	.	.	.
.	.	.	.	fq/	.	.	.
.	.	.	.	enq/JJ	.	.	.
4BB-/	.	(16d\LL	.	4f/	.	4ddd\	.
.	.	16c\	.	.	.	.	.
.	.	16B-\	.	.	.	.	.
.	.	16A\JJ	.	.	.	.	.
4r	.	16B-\LL	.	4r	.	4r	.
.	.	16c\	.	.	.	.	.
.	.	16d\	.	.	.	.	.
.	.	16e-\JJ)	.	.	.	.	.
.	.	.	.	ggq/LL	.	.	.
.	.	.	.	ffq/	.	.	.
.	.	.	.	eenq/JJ	.	.	.
(16AA/LL	.	8f'\L	.	4ff\	.	(16ccc\LL	.
16GG/	.	.	.	.	.	16bb-\	.
16FF/	.	(16f\L	.	.	.	16aa\	.
16EEn/JJ	.	16g\JJ	.	.	.	16gg\JJ	.
16FF/LL	.	16f\LL	.	4r	.	16aa\LL	.
16GG/	.	16e-\	.	.	.	16bb-\	.
16AA/	.	16d\	.	.	.	16ccc\	.
16BB-/JJ)	.	16c\JJ)	.	.	.	16ddd\JJ)	.
=43	=43	=43	=43	=43	=43	=43	=43
8BB-'/L	.	8d'\L	.	8dd'\L	.	8ddd'\L	.
(16D/L	.	(16d\L	.	(16dd\L	.	(16bb-\L	.
16E-/JJ	.	16e-\JJ	.	16ee-\JJ	.	16aa\JJ	.
16D/LL	.	16d\LL	.	16dd\LL	.	16bb-\LL	.
16C/	.	16c\	.	16cc\	.	16ccc\	.
16BB-/	.	16B-\	.	16b-\	.	16ddd\	.
16AA/JJ)	.	16A\JJ)	.	16a\JJ)	.	16eee-\JJ)	.
8BB-'/L	.	8B-'/L	.	8b-'/L	.	8ddd'\L	.
(16BB-/L	.	(16B-/L	.	(16b-/L	.	(16gg\L	.
16C/JJ	.	16c/JJ	.	16cc/JJ	.	16ff#\JJ	.
16BB-/LL	.	16B-/LL	.	16b-/LL	.	16gg\LL	.
16AA/	.	16A/	.	16a/	.	16aa\	.
16GG/	.	16G/	.	16g/	.	16bb-\	.
16FF#/JJ)	.	16F#/JJ)	.	16f#/JJ)	.	16ccc\JJ)	.
=44	=44	=44	=44	=44	=44	=44	=44
8GG'/L	.	8G'/L	.	8g'/L	.	8bb-'\L	.
(16GG/L	.	(16G/L	.	(16g/L	.	(16een\L	.
16AA/JJ	.	16A/JJ	.	16a/JJ	.	16dd\JJ	.
16GG/LL	.	16G/LL	.	16g/LL	.	16ee\LL	.
16FFn/	.	16Fn/	.	16fn/	.	16ffn\	.
16EEn/	.	16En/	.	16en/	.	16gg\	.
16DD/JJ)	.	16D/JJ)	.	16d/JJ)	.	16aa\JJ)	.
8CC'/L	.	8C'/L	.	8c'/L	.	8bb-'\L	.
(16C/L	.	(16c/L	.	(16cc/L	.	(16bb-\L	.
16D/JJ	.	16d/JJ	.	16dd/JJ	.	16aa\JJ	.
16C/LL	.	16c/LL	.	16cc/LL	.	16bb-\LL	.
16BB-/	.	16B-/	.	16b-/	.	16ccc\	.
16AA/	.	16A/	.	16a/	.	16ddd\	.
16GG/JJ)	.	16G/JJ)	.	16g/JJ)	.	16eeen\JJ)	.
=45	=45	=45	=45	=45	=45	=45	=45
8FF'/L	f	8F'/L	f	8f'/L	f	8fff'\L	f
8c'\	.	8cc'\	.	8ccc'\	.	8ccc'\	.
8A'\	.	8a'\	.	8aa'\	.	8aa'\	.
8F'\J	.	8f'\J	.	8ff'\J	.	8ff'\J	.
8E-'/L	.	8e-'/L	.	8ee-'/L	.	8ee-'/L	.
8C'/	.	8c'/	.	8cc'/	.	8cc'/	.
8AA'/	.	8A'/	.	8a'/	.	8a'/	.
8FF'/J	.	8F'/J	.	8f'/J	.	8f'/J	.
=46	=46	=46	=46	=46	=46	=46	=46
8EE-/L	f	8E-/L	f	8e-/L	f	8e-/L	f
8DD/	.	8D/	.	8d/	.	8d/	.
8FF/	.	8F/	.	8f/	.	8f/	.
8BB-/J	.	8B-/J	.	8b-/J	.	8b-/J	.
8D\L	.	8d\L	.	8dd/L	.	8dd\L	.
8F\	.	8f\	.	8f/	.	8ff\	.
8B-\	.	8b-\	.	8b-/	.	8bb-\	.
8En\J	.	8en\J	.	8en/J	.	8een\J	.
=47	=47	=47	=47	=47	=47	=47	=47
8F\L	.	8f\L	.	8f/L	.	4ff'\	.
8c\	.	8cc\	.	8ccc\	.	.	.
8A\	.	8a\	.	8aa\	.	4ccc'\	.
8F\J	.	8f\J	.	8ff\J	.	.	.
8E-/L	.	8e-/L	.	8ee-/L	.	[2fff\	.
8C/	.	8c/	.	8cc/	.	.	.
8AA/	.	8A/	.	8a/	.	.	.
8FF/J	.	8F/J	.	8f/J	.	.	.
=48	=48	=48	=48	=48	=48	=48	=48
8EE-/L	f	8E-/L	f	8e-/L	f	8fff\L]	f
8DD/	.	8D/	.	8d/	.	8d/	.
8FF/	.	8F/	.	8f/	.	8f/	.
8BB-/J	.	8B-/J	.	8b-/J	.	8b-/J	.
8D\L	.	8d\L	.	8dd\L	.	8dd\L	.
8F\	.	8f\	.	8ff\	.	8ff\	.
8B-\	.	8b-\	.	8bb-\	.	8bb-\	.
8d\J	.	8dd\J	.	8ddd\J	.	8ddd\J	.
=49	=49	=49	=49	=49	=49	=49	=49
*clefC4	*clefC4	*	*	*	*	*	*
.	.	.	.	.	.	fffq/	.
[4f\	.	4f\	.	4ff\	.	4.a/	.
16f\LL]	.	4r	.	4r	.	.	.
16en\	.	.	.	.	.	.	.
16d\	.	.	.	.	.	8b-\	.
16c\JJ	.	.	.	.	.	.	.
8B-'\L	.	2r	.	[4f/	.	[4cc\	.
8A'\	.	.	.	.	.	.	.
8G'\	.	.	.	16f/LL]	.	16cc\LL]	.
.	.	.	.	16f/	.	16dd\	.
8F'\J	.	.	.	16g/	.	16een\	.
.	.	.	.	16a/JJ	.	16ff\JJ	.
=50	=50	=50	=50	=50	=50	=50	=50
8En\L	.	[4C/	.	[4b-/	.	[4gg\	.
8F\	.	.	.	.	.	.	.
8G\	.	16C/LL]	.	16b-/LL]	.	16gg\LL]	.
.	.	16D/	.	16a/	.	16ff\	.
8A\J	.	16En/	.	16g/	.	16een\	.
.	.	16F/JJ	.	16f/JJ	.	16dd\JJ	.
8B-\L	.	[4C/ [4G/	.	8en/L	.	8cc\L	.
8c\	.	.	.	8d/	.	8b-\	.
8d\	.	16C/LL] 16G/]	.	8c/	.	8a\	.
.	.	16C/	.	.	.	.	.
8en\J	.	16D/	.	8B-/J	.	8g\J	.
.	.	16E/JJ	.	.	.	.	.
=51	=51	=51	=51	=51	=51	=51	=51
*clefF4	*clefF4	*	*	*	*	*	*
8FF/	.	8F/	.	8f/	.	8f/	.
8r	.	8r	.	8r	.	8r	.
8GG-/	.	8G-/	.	8g-/	.	8g-/	.
8r	.	8r	.	8r	.	8r	.
8GGn/	.	8Gn/	.	8G/	.	8gn/	.
8r	.	8r	.	8r	.	8r	.
8AA-/	.	8A-/	.	8A-/	.	8a-/	.
8r	.	8r	.	8r	.	8r	.
=52	=52	=52	=52	=52	=52	=52	=52
8AAn/	p	8An/	p	8An/	p	8an/	p
8r	.	8r	.	8r	.	8r	.
8BB-/	.	8B-/	.	8B-/	.	8b-\	.
8r	.	8r	.	8r	.	8r	.
8C-/	.	8c-\	.	8c-/	.	8cc-\	.
8r	.	8r	.	8r	.	8r	.
8Cn/	.	8cn\	.	8cn/	.	8ccn\	.
8r	.	8r	.	8r	.	8r	.
=53	=53	=53	=53	=53	=53	=53	=53
2.D-\	.	2.D-/	.	2.d-/	.	2.dd-\	.
(16D-\LL	.	4r	.	4r	.	4r	.
16E-\	.	.	.	.	.	.	.
16D-\	.	.	.	.	.	.	.
16C-\JJ)	.	.	.	.	.	.	.
=54	=54	=54	=54	=54	=54	=54	=54
2.BB-/	.	1r	.	1r	.	1r	.
(16BB-/LL	.	.	.	.	.	.	.
16C-/	.	.	.	.	.	.	.
16BB-/	.	.	.	.	.	.	.
16AA-/JJ)	.	.	.	.	.	.	.
=55	=55	=55	=55	=55	=55	=55	=55
[1GG-	.	2r	.	2r	.	(2B-/	.
.	.	(2C/	.	(2B--/	.	2g-/)	.
=56	=56	=56	=56	=56	=56	=56	=56
1GG-_	p	2D-/	p	2A-/	p	(4f'/	p
.	.	.	.	.	.	4e-'/	.
.	.	2A-/)	.	2f/)	.	4d-'/	.
.	.	.	.	.	.	4c-'/)	.
=57	=57	=57	=57	=57	=57	=57	=57
2GG-/_	.	2B-/	.	2g-/	.	(4B-/	.
.	.	.	.	.	.	4.d-/)	.
8GG-/L]	.	2r	.	2r	.	.	.
(16D-/L	.	.	.	.	.	8r	.
16Cn/JJ	.	.	.	.	.	.	.
16D-/LL	.	.	.	.	.	4r	.
16E-/	.	.	.	.	.	.	.
16D-/	.	.	.	.	.	.	.
16C-/JJ)	.	.	.	.	.	.	.
=58	=58	=58	=58	=58	=58	=58	=58
[2BB-/	.	1r	.	1r	.	1r	.
8BB-/L]	.	.	.	.	.	.	.
(16BB-/L	.	.	.	.	.	.	.
16AAn/JJ	.	.	.	.	.	.	.
16BB-/LL	.	.	.	.	.	.	.
16C-/	.	.	.	.	.	.	.
16BB-/	.	.	.	.	.	.	.
16AA-/JJ)	.	.	.	.	.	.	.
=59	=59	=59	=59	=59	=59	=59	=59
[1GG-	.	2r	.	2r	.	(2b-\	.
.	.	[2C/	.	[2B--/	.	2gg-\)	.
=60	=60	=60	=60	=60	=60	=60	=60
2.GG-/]	p	2C/]	p	2B--/]	p	(4ff'\	p
.	.	.	.	.	.	4ee-'\	.
.	.	(4D-'/	.	(4B-'/	.	4dd-'\	.
4AA-/	.	4G-'/)	.	4c'/)	.	4ccn'\)	.
=61	=61	=61	=61	=61	=61	=61	=61
(2AA-/	p	(2F/	p	(2e--/	p	(2cc-\	p
2BB-/)	.	2G-/)	.	2d-/)	.	2b-\)	.
=62	=62	=62	=62	=62	=62	=62	=62
(2C-'/	.	(2E-'/	.	[2g-'/	.	[2a-'/	.
2Cn'/)	.	2e-'\)	.	2g-'/]	.	2a-'/]	.
=63	=63	=63	=63	=63	=63	=63	=63
(2.D-/	.	(4.F/	.	(2.d-/	.	(4.a-/	.
.	.	8G-/	.	.	.	8b-/	.
.	.	4A-/)	.	.	.	4cc-\)	.
4FF/)	.	4r	.	4a-/)	.	4r	.
=64	=64	=64	=64	=64	=64	=64	=64
(2.D-/	pp	(2.B-/	pp	(2B-/	.	(4.g-/	pp
.	.	.	.	.	.	8a-/	.
.	.	.	.	4g-/)	.	4b-/)	.
16GG-/LL)	.	16D-/LL)	.	4r	.	16r	.
16BB-'/	.	16B-'/	.	.	.	16b-'/LL	.
16AA-'/	.	16A-'/	.	.	.	16a-'/	.
16GG-'/JJ	.	16G-'/JJ	.	.	.	16g-'/JJ	.
=65	=65	=65	=65	=65	=65	=65	=65
4FF/	.	4F/	.	2r	.	4f/	.
16r	.	16r	.	.	.	16r	.
16GG-/LL	.	16G-/LL	.	.	.	16g-/LL	.
16FF/	.	16F/	.	.	.	16f/	.
16EE-/JJ	.	16E-/JJ	.	.	.	16e-/JJ	.
4DD-/	.	4D-/	.	4r	.	4d-/	.
16r	.	16r	.	16r	.	16r	.
16DD-/LL	.	16F/LL	.	16d-/LL	.	16cc-\LL	.
16EE-/	.	16G-/	.	16d-/	.	16b-\	.
16FF/JJ	.	16A-/JJ	.	16d-/JJ	.	16a-\JJ	.
=66	=66	=66	=66	=66	=66	=66	=66
4GG-/	.	4D-/	.	4d-/	.	4b-\	.
4r	.	4r	.	4r	.	4r	.
4r	.	4r	.	2r	.	4r	.
16r	.	16r	.	.	.	16r	.
16GG-/LL	.	16G-/LL	.	.	.	16g-/LL	.
16FF/	.	16F/	.	.	.	16f/	.
16EE-/JJ	.	16E-/JJ	.	.	.	16e-/JJ	.
=67	=67	=67	=67	=67	=67	=67	=67
4DD/	.	4D/	.	2r	.	4d/	.
16r	.	16r	.	.	.	16r	.
16E-\LL	.	16E-/LL	.	.	.	16e-/LL	.
16D-\	.	16D-/	.	.	.	16d-/	.
16C-\JJ	.	16c-/JJ	.	.	.	16c-/JJ	.
4BB-/	.	4B-/	.	4r	.	4B-/	.
16r	.	16r	.	16r	.	16r	.
16BB-/LL	.	16F/LL	.	16B-/LL	.	16a-/LL	.
16Cn/	.	16F/	.	16B-/	.	16g-/	.
16Dn/JJ	.	16F/JJ	.	16B-/JJ	.	16f/JJ	.
=68	=68	=68	=68	=68	=68	=68	=68
4E-\	.	4G-/	.	4B-/	.	4g-/	.
16r	.	16r	.	16r	.	16r	.
16E-\LL	.	16G-/LL	.	16B-/LL	.	16f/LL	.
16E-\	.	16G-/	.	16B-/	.	16e-/	.
16E-\JJ	.	16G-/JJ	.	16B-/JJ	.	16d-/JJ	.
4AA-/	.	4G-/	.	4e-/	.	4cn/	.
16r	.	16r	.	16r	.	16r	.
16AA-/LL	.	16G-/LL	.	16c/LL	.	16b-/LL	.
16BB-/	.	16F/	.	16d-/	.	16a-/	.
16C/JJ	.	16E-/JJ	.	16e-/JJ	.	16g-/JJ	.
=69	=69	=69	=69	=69	=69	=69	=69
4D-\	.	4F/	.	4A-/	.	4f/	.
16r	.	16r	.	16r	.	16r	.
16DD-/LL	.	16F/LL	.	16a-/LL	.	16ee-\LL	.
16DD-/	.	16F/	.	16a-/	.	16dd-\	.
16DD-/JJ	.	16F/JJ	.	16a-/JJ	.	16cc-\JJ	.
4EE-/	.	4G-/	.	4g-/	.	4b-\	.
16r	.	16r	.	16r	.	16r	.
16EE-/LL	.	16G-/LL	.	16B-/LL	.	16gg-\LL	.
16EE-/	.	16G-/	.	16B-/	.	16ff\	.
16EE-/JJ	.	16G-/JJ	.	16B-/JJ	.	16gg-\JJ	.
=70	=70	=70	=70	=70	=70	=70	=70
4C-/	.	4G-/	.	4e-/	.	4a-/	.
16r	.	16r	.	16r	.	16r	.
16AA-/LL	.	16G-/LL	.	16cn/LL	.	16ee-\LL	.
16AA-/	.	16G-/	.	16c/	.	16ddn\	.
16AA-/JJ	.	16G-/JJ	.	16c/JJ	.	16ee-\JJ	.
4D-\	.	4A-/	.	4c-/	.	4f/	.
4r	.	[4D-/	.	4r	.	(16bb-\LL	.
.	.	.	.	.	.	16ccc-\	.
.	.	.	.	.	.	16bb-\	.
.	.	.	.	.	.	16aa-\JJ	.
=71	=71	=71	=71	=71	=71	=71	=71
*k[b-e-a-d-g-c-]	*k[b-e-a-d-g-c-]	*k[b-e-a-d-g-c-]	*k[b-e-a-d-g-c-]	*k[b-e-a-d-g-c-]	*k[b-e-a-d-g-c-]	*k[b-e-a-d-g-c-]	*k[b-e-a-d-g-c-]
(2GG-/	.	(4D-/]	.	[1d-	.	16bb-\LL	.
.	.	.	.	.	.	16ccc-\	.
.	.	.	.	.	.	16bb-\	.
.	.	.	.	.	.	16aa-\JJ	.
.	.	2E-/	.	.	.	16gg-\LL	.
.	.	.	.	.	.	16aa-\	.
.	.	.	.	.	.	16gg-\	.
.	.	.	.	.	.	16ff\JJ)	.
2AA-/	.	.	.	.	.	(16ff\LL	.
.	.	.	.	.	.	16gg-\	.
.	.	.	.	.	.	16ff\	.
.	.	.	.	.	.	16ee-\JJ	.
.	.	[4F/)	.	.	.	16dd-\LL	.
.	.	.	.	.	.	16ee-\	.
.	.	.	.	.	.	16dd-\	.
.	.	.	.	.	.	16ccn\JJ	.
=72	=72	=72	=72	=72	=72	=72	=72
2BB-/	.	(4F/]	.	1d-_	.	16cc-\LL	.
.	.	.	.	.	.	16dd-\	.
.	.	.	.	.	.	16cc-\	.
.	.	.	.	.	.	16b-\JJ	.
.	.	4G-/	.	.	.	16a-/LL	.
.	.	.	.	.	.	16b-/	.
.	.	.	.	.	.	16a-/	.
.	.	.	.	.	.	16g-/JJ	.
4C-/	.	4A-/	.	.	.	16f/LL	.
.	.	.	.	.	.	16g-/	.
.	.	.	.	.	.	16f/	.
.	.	.	.	.	.	16e-/JJ	.
4D-/)	.	4F/)	.	.	.	16d-/LL	.
.	.	.	.	.	.	16e-/	.
.	.	.	.	.	.	16d-/	.
.	.	.	.	.	.	16c-/JJ)	.
=73	=73	=73	=73	=73	=73	=73	=73
4G-'\	p	4D-'/	p	(16d-/LL]	p	4B-'/	p
.	.	.	.	16e-/	.	.	.
.	.	.	.	16d-/	.	.	.
.	.	.	.	16cn/JJ	.	.	.
4G-'\	.	4B-'/	.	16d-/LL	.	4b-'\	.
.	.	.	.	16e-/	.	.	.
.	.	.	.	16d-/	.	.	.
.	.	.	.	16c-/JJ)	.	.	.
4F'\	.	4A-'/	.	(16B-/LL	.	4dd-'\	.
.	.	.	.	16c-/	.	.	.
.	.	.	.	16B-/	.	.	.
.	.	.	.	16A-/JJ)	.	.	.
4F'\	.	4d-'\	.	(16b-/LL	.	4dd-'\	.
.	.	.	.	16cc-/	.	.	.
.	.	.	.	16b-/	.	.	.
.	.	.	.	16a-/JJ)	.	.	.
=74	=74	=74	=74	=74	=74	=74	=74
(4E-\	.	(4g-\	.	(16g-/LL	.	(4ee-\	.
.	.	.	.	16a-/	.	.	.
.	.	.	.	16g-/	.	.	.
.	.	.	.	16f/JJ	.	.	.
4D-\	.	4f\	.	16g-/LL	.	4ff\	.
.	.	.	.	16a-/	.	.	.
.	.	.	.	16g-/	.	.	.
.	.	.	.	16f/JJ)	.	.	.
4Cn/	.	4e-\	.	(16f/LL	.	4gg-\	.
.	.	.	.	16g-/	.	.	.
.	.	.	.	16f/	.	.	.
.	.	.	.	16e-/JJ)	.	.	.
4C-/)	.	4A-/)	.	(16e-/LL	.	4aa-\)	.
.	.	.	.	16d-/	.	.	.
.	.	.	.	16e-/	.	.	.
.	.	.	.	16f/JJ)	.	.	.
=75	=75	=75	=75	=75	=75	=75	=75
4BB-'/	p	4D-/	p	(16d-/LL	p	4gg-'\	p
.	.	.	.	16e-/	.	.	.
.	.	.	.	16d-/	.	.	.
.	.	.	.	16c-/JJ)	.	.	.
4C-'/	.	(16E-/LL	.	(16c-/LL	.	4aa-'\	.
.	.	16F/	.	16d-/	.	.	.
.	.	16E-/	.	16c-/	.	.	.
.	.	16G-/JJ)	.	16B-/JJ)	.	.	.
4D-'\	.	(16G-/LL	.	(16B-/LL	.	4dd-'\	.
.	.	16A-/	.	16c-/	.	.	.
.	.	16G-/	.	16B-/	.	.	.
.	.	16F/JJ	.	16A-/JJ	.	.	.
4D-'\	.	16G-/LL	.	16B-/LL	.	4ff'\	.
.	.	16A-/	.	16c-/	.	.	.
.	.	16G-/	.	16B-/	.	.	.
.	.	16F/JJ)	.	16A-/JJ)	.	.	.
=76	=76	=76	=76	=76	=76	=76	=76
4r	.	4G-/	.	4B-/	.	4r	.
4AA-'/	.	4r	.	4r	.	(16cc-\LL	.
.	.	.	.	.	.	16dd-\	.
.	.	.	.	.	.	16cc-\	.
.	.	.	.	.	.	16b-\JJ)	.
4DD-'/	.	2r	.	4r	.	4a-'/	.
4FF'/	.	.	.	(16dd-\LL	.	4a-'/	.
.	.	.	.	16ee-\	.	.	.
.	.	.	.	16dd-\	.	.	.
.	.	.	.	16cc-\JJ)	.	.	.
=77	=77	=77	=77	=77	=77	=77	=77
4BB-'/	.	4r	.	4b-'\	.	16g-\LL	.
.	.	.	.	.	.	(16bb-\	.
.	.	.	.	.	.	16aa-\	.
.	.	.	.	.	.	16gg-\JJ	.
4BB-'/	.	(16A-/LL	.	4r	.	16ff\LL	.
.	.	16B-/	.	.	.	16gg-\	.
.	.	16A-/	.	.	.	16ff\	.
.	.	16G-/JJ)	.	.	.	16ee-\JJ	.
4D-'\	.	4F'/	.	4f'/	.	16dd-\LL	.
.	.	.	.	.	.	16ee-\	.
.	.	.	.	.	.	16dd-\	.
.	.	.	.	.	.	16cc-\JJ	.
4D-'\	.	4f'\	.	4f'/	.	16b-\LL	.
.	.	.	.	.	.	16cc-\	.
.	.	.	.	.	.	16b-\	.
.	.	.	.	.	.	16a-\JJ)	.
=78	=78	=78	=78	=78	=78	=78	=78
(4E-\	.	4B-/	.	4g-'/	.	4g-/	.
4F\	.	(16A-/LL	.	4e-'/	.	4r	.
.	.	16B-/	.	.	.	.	.
.	.	16A-/	.	.	.	.	.
.	.	16G-/JJ)	.	.	.	.	.
4G-\	.	4G-'/	.	4b-'\	.	2r	.
4A-\)	.	(16g-\LL	.	4b-'\	.	.	.
.	.	16a-\	.	.	.	.	.
.	.	16g-\	.	.	.	.	.
.	.	16f\JJ)	.	.	.	.	.
=79	=79	=79	=79	=79	=79	=79	=79
4G-'\	.	4e-'\	.	(4b-\	.	1r	.
4A-'\	.	4e-'\	.	4ccn\	.	.	.
4D-'\	.	4f'\	.	4dd-\	.	.	.
(16F\LL	.	(16d-/LL	.	4a-/)	.	.	.
16G-\	.	16B-/	.	.	.	.	.
16F\	.	16A-/	.	.	.	.	.
16E-\JJ)	.	16G-/JJ)	.	.	.	.	.
=80	=80	=80	=80	=80	=80	=80	=80
(16E-\LL	.	(16G-/LL	.	4g-'/	.	2r	.
16F\	.	16A-/	.	.	.	.	.
16E-\	.	16G-/	.	.	.	.	.
16D-\JJ)	.	16F/JJ)	.	.	.	.	.
(16D-/LL	.	(16f\LL	.	4a-'/	.	.	.
16E-/	.	16g-\	.	.	.	.	.
16D-/	.	16f\	.	.	.	.	.
16C-/JJ)	.	16e-\JJ)	.	.	.	.	.
(16C-/LL	.	(16e-\LL	.	4d-'/	.	4r	.
16BB-/	.	16d-\	.	.	.	.	.
16AA-/	.	16c-\	.	.	.	.	.
16GG-/JJ)	.	16B-\JJ)	.	.	.	.	.
4r	.	4B-'/	.	4r	.	(16gg-\LL	.
.	.	.	.	.	.	16aa-\	.
.	.	.	.	.	.	16gg-\	.
.	.	.	.	.	.	16ff\JJ)	.
=81	=81	=81	=81	=81	=81	=81	=81
4r	.	4A-'/	.	4r	.	(16ff\LL	.
.	.	.	.	.	.	16gg-\	.
.	.	.	.	.	.	16ff\	.
.	.	.	.	.	.	16ee-\JJ)	.
(16BB-/LL	.	4B-'/	.	4gg-'\	.	(16dd-\LL	.
16C-/	.	.	.	.	.	16ee-\	.
16BB-/	.	.	.	.	.	16dd-\	.
16AA-/JJ)	.	.	.	.	.	16cc-\JJ)	.
(16AA-/LL	.	4D-'/	.	4b-'\	.	(16cc-\LL	.
16GG-/	.	.	.	.	.	16b-\	.
16FF/	.	.	.	.	.	16a-\	.
16GG-/JJ)	.	.	.	.	.	16g-\JJ)	.
(16AA-/LL	.	4r	.	4cc-'\	.	(16ccc-\LL	.
16BB-/	.	.	.	.	.	16ddd-\	.
16AA-/	.	.	.	.	.	16ccc-\	.
16GG-/JJ)	.	.	.	.	.	16bb-\JJ)	.
=82	=82	=82	=82	=82	=82	=82	=82
(16FF/LL	.	(16a-\LL	.	4cc-'\	.	4aa-'\	.
16GG-/	.	16b-\	.	.	.	.	.
16FF/	.	16a-\	.	.	.	.	.
16EE-/JJ)	.	16g-\JJ)	.	.	.	.	.
4DDn'/	.	4f'\	.	4ff'\	.	(16bb-\LL	.
.	.	.	.	.	.	16ccc-\	.
.	.	.	.	.	.	16bb-\	.
.	.	.	.	.	.	16aa-\JJ)	.
(16EE-/LL	.	(16g-\LL	.	4b-'\	.	4gg-'\	.
16FF/	.	16a-\	.	.	.	.	.
16EE-/	.	16g-\	.	.	.	.	.
16DD-/JJ)	.	16f\JJ)	.	.	.	.	.
4CCn'/	.	4e-'\	.	(16a-/LL	.	(16aa-\LL	.
.	.	.	.	16g-/	.	16bb-\	.
.	.	.	.	16f/	.	16aa-\	.
.	.	.	.	16e-/JJ)	.	16gg-\JJ)	.
=83	=83	=83	=83	=83	=83	=83	=83
4DD-'/	.	4r	.	(16f/LL	.	(16ff\LL	.
.	.	.	.	16g-/	.	16ee-\	.
.	.	.	.	16f/	.	16dd-\	.
.	.	.	.	16e-/JJ)	.	16ccn\JJ)	.
4GG-'/	.	(16g-\LL	.	4d-'/	.	8b-'\L	.
.	.	16a-\	.	.	.	.	.
.	.	16g-\	.	.	.	8bb-'\J	.
.	.	16f\JJ)	.	.	.	.	.
4CCn'/	.	4e-'\	.	(16e-/LL	.	(16cccn\LL	.
.	.	.	.	16f/	.	16ddd-\	.
.	.	.	.	16e-/	.	16ccc\	.
.	.	.	.	16d-/JJ)	.	16bb-\JJ)	.
*clefC4	*clefC4	*	*	*	*	*	*
(16f\LL	.	4F'/	.	4cn'/	.	8aan'\L	.
16g-\	.	.	.	.	.	.	.
16f\	.	.	.	.	.	8fff'\J	.
16e-\JJ)	.	.	.	.	.	.	.
=84	=84	=84	=84	=84	=84	=84	=84
4dn'\	.	4f'\	.	(16b-\LL	.	8b-'\L	.
.	.	.	.	16cc-\	.	.	.
.	.	.	.	16b-\	.	8ff'\J	.
.	.	.	.	16a-\JJ	.	.	.
(16e-\LL	.	(16e-\LL	.	8g-'\L)	.	[4gg-\	.
16f\	.	16a-\	.	.	.	.	.
16e-\	.	16g-\	.	[8ee-\J	.	.	.
16d-\JJ)	.	16f\JJ)	.	.	.	.	.
(16c-\LL	.	(16e-\LL	.	8ee-\L]	.	8gg-\L]	.
16d-\	.	16f\	.	.	.	.	.
16c-\	.	16e-\	.	8ee-'\	.	8gg-'\	.
16B-\JJ)	.	16d-\JJ)	.	.	.	.	.
(16A-\LL	.	(16c-\LL	.	8ff'\	.	8aa-'\	.
16B-\	.	16d-\	.	.	.	.	.
16A-\	.	16c-\	.	8gg-'\J	.	8bb-'\J	.
16G-\JJ)	.	16B-\JJ)	.	.	.	.	.
=85	=85	=85	=85	=85	=85	=85	=85
*clefF4	*clefF4	*	*	*	*	*	*
8F'\L	.	8A-'\L	.	16aa-\LL	.	8ccc-'\L	.
.	.	.	.	16bb-\	.	.	.
8E-'\	.	8a-'\	.	16aa-\	.	8cccn'\J	.
.	.	.	.	16gg-\JJ	.	.	.
8D-'\	.	8D-'/	.	16ff\LL	.	[4ddd-\	.
.	.	.	.	16gg-\	.	.	.
8Cn'\J	.	8A-'/J	.	16ff\	.	.	.
.	.	.	.	16ee-\JJ	.	.	.
8C-'/L	.	8D-/L	.	16dd-\LL	.	8ddd-\L]	.
.	.	.	.	16ee-\	.	.	.
8BB-'/	.	8d-/J	.	16dd-\	.	8eee-'\J	.
.	.	.	.	16cc-\JJ	.	.	.
8AA-'/	.	8D-/L	.	16b-\LL	.	[4fff\	.
.	.	.	.	16cc-\	.	.	.
8GG-'/J	.	8d-/J	.	16b-\	.	.	.
.	.	.	.	16a-\JJ	.	.	.
=86	=86	=86	=86	=86	=86	=86	=86
8FF/L	.	8D-/L	.	16a-/LL	.	8fff\L]	.
.	.	.	.	16b-/	.	.	.
8EE-/	.	8d-/J	.	16a-/	.	8ggg-'\J	.
.	.	.	.	16g-/JJ	.	.	.
8DD-/	.	8D-/L	.	16f/LL	.	[4aaa-\	.
.	.	.	.	16g-/	.	.	.
8CCn/J	.	8A-/J	.	16f/	.	.	.
.	.	.	.	16e-/JJ	.	.	.
8C-/L	.	8F/L	.	16d-/LL	.	8aaa-\L]	.
.	.	.	.	16e-/	.	.	.
8AA-/	.	8d-/J	.	16d-/	.	8ff'\	.
.	.	.	.	16c-/JJ	.	.	.
8GG-/	.	8D-/L	.	16B-/LL	.	8gg-'\	.
.	.	.	.	16c-/	.	.	.
8FF/J	.	8A-/J	.	16B-/	.	8aa-'\J	.
.	.	.	.	16A-/JJ	.	.	.
=87	=87	=87	=87	=87	=87	=87	=87
2GG-/	ff	(16G-/LL	ff	1g-	ff	2bb-\	ff
.	.	16A-/	.	.	.	.	.
.	.	16G-/	.	.	.	.	.
.	.	16F/JJ	.	.	.	.	.
.	.	16G-/LL	.	.	.	.	.
.	.	16A-/	.	.	.	.	.
.	.	16G-/	.	.	.	.	.
.	.	16F/JJ	.	.	.	.	.
2C-/	.	16G-/LL	.	.	.	2eee-\	.
.	.	16A-/	.	.	.	.	.
.	.	16G-/	.	.	.	.	.
.	.	16F/JJ	.	.	.	.	.
.	.	16G-/LL	.	.	.	.	.
.	.	16A-/	.	.	.	.	.
.	.	16G-/	.	.	.	.	.
.	.	16F/JJ)	.	.	.	.	.
=88	=88	=88	=88	=88	=88	=88	=88
2BB-/	.	(16G-/LL	.	2g-/	.	2ddd-\	.
.	.	16A-/	.	.	.	.	.
.	.	16G-/	.	.	.	.	.
.	.	16F/JJ)	.	.	.	.	.
.	.	(16F/LL	.	.	.	.	.
.	.	16G-/	.	.	.	.	.
.	.	16F/	.	.	.	.	.
.	.	16E-/JJ)	.	.	.	.	.
2AA-/	.	(16E-/LL	.	2cc-\	.	2fff\	.
.	.	16F/	.	.	.	.	.
.	.	16E-/	.	.	.	.	.
.	.	16D-/JJ)	.	.	.	.	.
.	.	(16E-/LL	.	.	.	.	.
.	.	16F/	.	.	.	.	.
.	.	16E-/	.	.	.	.	.
.	.	16D-/JJ)	.	.	.	.	.
=89	=89	=89	=89	=89	=89	=89	=89
(16AA-/LL	.	2D-/	.	2b-\	.	2ggg-\	.
16BB-/	.	.	.	.	.	.	.
16AA-/	.	.	.	.	.	.	.
16GG-/JJ	.	.	.	.	.	.	.
16AA-/LL	.	.	.	.	.	.	.
16BB-/	.	.	.	.	.	.	.
16AA-/	.	.	.	.	.	.	.
16GG-/JJ)	.	.	.	.	.	.	.
(16GG-/LL	.	4D-/	.	2cc-\	.	2aaa-\	.
16AA-/	.	.	.	.	.	.	.
16GG-/	.	.	.	.	.	.	.
16FF/JJ	.	.	.	.	.	.	.
16EE-/LL	.	(16E-/LL	.	.	.	.	.
16FF/	.	16D-/	.	.	.	.	.
16EE-/	.	16E-/	.	.	.	.	.
16DD-/JJ)	.	16F/JJ)	.	.	.	.	.
=90	=90	=90	=90	=90	=90	=90	=90
8GG-'/L	p	8G-'/L	p	8b-'/L	p	8ggg-'\L	p
8G-'\	.	8G-'/	.	8g-'/	.	8g-'/	.
(8G-\	.	(8G-/	.	(8g-/	.	(8g-/	.
8F-\J)	.	8F-/J)	.	8f-/J)	.	8f-/J)	.
(8F-\L	.	(8F-/L	.	(8f-/L	.	(8f-/L	.
8E-\	.	8E-/	.	8e-/	.	8e-/	.
8G-\J)	.	8G-/J)	.	8g-/J)	.	8g-/J)	.
8E-'\	.	8E-'/	.	8e-'/	.	8e-'/	.
=91	=91	=91	=91	=91	=91	=91	=91
(8E-\L	.	(8E-/L	.	(8e-/L	.	(8e-/L	.
8D-\	.	8D-/	.	8d-/	.	8d-/	.
8G-\J)	.	8G-/J)	.	8g-/J)	.	8g-/J)	.
8F-'\	.	8F-'/	.	8f-'/	.	8f-'/	.
(8F-\L	.	(8F-/L	.	(8f-/L	.	(8f-/L	.
8E-\	.	8E-/	.	8e-/	.	8e-/	.
8G-\J)	.	8G-/J)	.	8g-/J)	.	8g-/J)	.
8E-'\	.	8E-'/	.	8e-'/	.	8e-'/	.
=92	=92	=92	=92	=92	=92	=92	=92
*>A1	*>A1	*>A1	*>A1	*>A1	*>A1	*>A1	*>A1
(8E-\L	p	(8E-/L	p	(8e-/L	p	(8e-/L	p
8D-\	.	8D-/	.	8d-/	.	8d-/	.
8G-\J)	.	8G-/J)	.	8g-/J)	.	8g-/J)	.
8C-'/	.	8c-'\	.	8c-'/	.	8c-'/	.
(8C-\L	.	(8c-\L	.	(8c-/L	.	(8c-/L	.
8BB-\	.	8B-\	.	8B-/	.	8B-/	.
8G-\J)	.	8g-\J)	.	8g-/J)	.	8g-/J)	.
8BB-'/	.	8B-'/	.	8B-'/	.	8B-'/	.
=93	=93	=93	=93	=93	=93	=93	=93
(4BB-/	pp	(4B-/	pp	(4B-/	pp	(4B-/	pp
2.AAn/)	.	2.An/)	.	2.An/)	.	2.An/)	.
=94:|!	=94:|!	=94:|!	=94:|!	=94:|!	=94:|!	=94:|!	=94:|!
*>A2	*>A2	*>A2	*>A2	*>A2	*>A2	*>A2	*>A2
(8E-\L	p	(8E-/L	p	(8e-/L	p	(8e-/L	p
8D-\	.	8D-/	.	8d-/	.	8d-/	.
8G-\J)	.	8G-/J)	.	8g-/J)	.	8g-/J)	.
8C-'/	.	8c-'\	.	8c-'/	.	8c-'/	.
(8C-\L	.	(8c-\L	.	(8c-/L	.	(8c-/L	.
8BB-\	.	8B-\	.	8B-/	.	8B-/	.
8G-\J)	.	8g-\J)	.	8g-/J)	.	8g-/J)	.
8GG-'/	.	8G-'/	.	8g-'/	.	8g-'/	.
=95	=95	=95	=95	=95	=95	=95	=95
*MM54	*MM54	*MM54	*MM54	*MM54	*MM54	*MM54	*MM54
(4GG-/	pp	(4G-/	pp	(4g-/	pp	(4g-/	pp
2FFn;/)	.	2Fn;/)	.	2fn;/)	.	2fn;/)	.
(4GG-/	.	[4G-/	.	4r	.	4r	.
=96	=96	=96	=96	=96	=96	=96	=96
*>B	*>B	*>B	*>B	*>B	*>B	*>B	*>B
*M3/4	*M3/4	*M3/4	*M3/4	*M3/4	*M3/4	*M3/4	*M3/4
*MM54	*MM54	*MM54	*MM54	*MM54	*MM54	*MM54	*MM54
4.FF/	.	2.G-/_	.	(4.A-/	.	2.r	.
8FF-/	.	.	.	8B-/	.	.	.
8EE-/L	.	.	.	8c-/L)	.	.	.
8C-/J)	.	.	.	8c-/J	.	.	.
=97	=97	=97	=97	=97	=97	=97	=97
(4BB-/	.	(4G-/]	.	4.d-/	.	2.r	.
8AA-/)	.	8F/)	.	.	.	.	.
8r	.	8r	.	8r	.	.	.
4r	.	4r	.	4r	.	.	.
=98	=98	=98	=98	=98	=98	=98	=98
*met(C)	*met(C)	*met(C)	*met(C)	*met(C)	*met(C)	*met(C)	*met(C)
*M4/4	*M4/4	*M4/4	*M4/4	*M4/4	*M4/4	*M4/4	*M4/4
*MM120	*MM120	*MM120	*MM120	*MM120	*MM120	*MM120	*MM120
1r	.	1r	.	4r	.	4r	.
.	.	.	.	16cc#\LL	.	4cc#\	.
.	.	.	.	16dd#\	.	.	.
.	.	.	.	16cc#\	.	.	.
.	.	.	.	16bn\JJ	.	.	.
.	.	.	.	16a#/LL	.	4cc#\	.
.	.	.	.	16b/	.	.	.
.	.	.	.	16a#/	.	.	.
.	.	.	.	16g#/JJ	.	.	.
.	.	.	.	4f#/	.	8cc#\L	.
.	.	.	.	.	.	8cc#\J	.
=99	=99	=99	=99	=99	=99	=99	=99
*k[f#c#]	*k[f#c#]	*k[f#c#]	*k[f#c#]	*k[f#c#]	*k[f#c#]	*k[f#c#]	*k[f#c#]
*M3/4	*M3/4	*M3/4	*M3/4	*M3/4	*M3/4	*M3/4	*M3/4
*MM54	*MM54	*MM54	*MM54	*MM54	*MM54	*MM54	*MM54
4r	.	4r	.	4r	.	2ff#\	.
4r	.	4r	.	4r	.	.	.
(4DDn/	.	(4Dn/	.	[4dn/	.	4r	.
=100	=100	=100	=100	=100	=100	=100	=100
4.CC#/	.	4.E/	.	2d/_	.	2.r	.
16CCn/LL	.	8F#/	.	.	.	.	.
16Cn/JJ	.	.	.	.	.	.	.
8BB/L	.	8G/L)	.	(8d/L]	.	.	.
8C#/J)	.	8G/J	.	8e/J)	.	.	.
=101	=101	=101	=101	=101	=101	=101	=101
(4C#/	.	(4G/	.	2A/	.	2.r	.
4D\)	.	4F#/)	.	.	.	.	.
4r	.	4r	.	4r	.	.	.
=102	=102	=102	=102	=102	=102	=102	=102
*met(C)	*met(C)	*met(C)	*met(C)	*met(C)	*met(C)	*met(C)	*met(C)
*M4/4	*M4/4	*M4/4	*M4/4	*M4/4	*M4/4	*M4/4	*M4/4
*MM120	*MM120	*MM120	*MM120	*MM120	*MM120	*MM120	*MM120
1r	.	1r	.	4r	.	4r	.
.	.	.	.	16a/LL	.	4a/	.
.	.	.	.	16b/	.	.	.
.	.	.	.	16a/	.	.	.
.	.	.	.	16g/JJ	.	.	.
.	.	.	.	16f#/LL	.	4a/	.
.	.	.	.	16g/	.	.	.
.	.	.	.	16f#/	.	.	.
.	.	.	.	16e/JJ	.	.	.
.	.	.	.	4d/	.	8a/L	.
.	.	.	.	.	.	8a/J	.
=103	=103	=103	=103	=103	=103	=103	=103
*M3/4	*M3/4	*M3/4	*M3/4	*M3/4	*M3/4	*M3/4	*M3/4
*MM54	*MM54	*MM54	*MM54	*MM54	*MM54	*MM54	*MM54
4r	.	4r	.	4r	.	2dd\	.
4r	.	4r	.	4r	.	.	.
8r	.	8r	.	8r	.	4r	.
8C#/	.	8G/	.	8e/	.	.	.
=104	=104	=104	=104	=104	=104	=104	=104
(4C#/	.	(4G/	.	2A/	.	4r	.
4D\)	.	4F#/)	.	.	.	4r	.
4r	.	8r	.	8r	.	8r	.
.	.	8c#\	.	8g/	.	8ee\	.
=105	=105	=105	=105	=105	=105	=105	=105
4r	.	(4c#\	.	(4g/	.	2a/	.
4r	.	4d\)	.	4f#/)	.	.	.
8r	.	8r	.	8r	.	4r	.
8C#/	.	8G/	.	8e/	.	.	.
=106	=106	=106	=106	=106	=106	=106	=106
*met(C)	*met(C)	*met(C)	*met(C)	*met(C)	*met(C)	*met(C)	*met(C)
*M4/4	*M4/4	*M4/4	*M4/4	*M4/4	*M4/4	*M4/4	*M4/4
*MM120	*MM120	*MM120	*MM120	*MM120	*MM120	*MM120	*MM120
(4C#/	.	(4G/	.	4.A/	.	1r	.
8D/)	.	8F#/)	.	.	.	.	.
8r	.	8r	.	8r	.	.	.
(4C#/	.	(4G/	.	4.A/	.	.	.
8D/)	.	8F#/)	.	.	.	.	.
8r	.	8r	.	8r	.	.	.
=107	=107	=107	=107	=107	=107	=107	=107
(4C#/	.	(4G/	.	4.A/	.	4r	.
8D/)	.	8F#/)	.	.	.	4a/	.
8r	.	8r	.	8r	.	.	.
(4C#/	.	(4G/	.	4A/	.	4a/	.
8D/)	.	8F#/)	.	16a/LL	.	8a/L	.
.	.	.	.	16b/	.	.	.
8r	.	8r	.	16a/	.	8a/J	.
.	.	.	.	16g/JJ	.	.	.
=108	=108	=108	=108	=108	=108	=108	=108
*clefC4	*clefC4	*	*	*	*	*	*
(2A\	.	(4d\	.	(4f#/	.	4dd\	.
.	.	8F#/)	.	8d/)	.	4r	.
.	.	8r	.	8r	.	.	.
[2a\)	.	(4d\	.	(4f#/	.	2r	.
.	.	8F#/)	.	8d/)	.	.	.
.	.	8r	.	8r	.	.	.
=109	=109	=109	=109	=109	=109	=109	=109
(4a\]	.	(4F#/	.	(4d/	.	1r	.
8g\L	.	8D/)	.	8A/)	.	.	.
8f#\J	.	8r	.	8r	.	.	.
8e\L	.	(4A/	.	(4f#/	.	.	.
8d\	.	.	.	.	.	.	.
8f#\	.	8D/)	.	8A/)	.	.	.
8d\J)	.	8r	.	8r	.	.	.
=110	=110	=110	=110	=110	=110	=110	=110
*clefF4	*clefF4	*	*	*	*	*	*
(4BB/	.	(4G/	.	(4d/	.	1r	.
8Cn/)	.	8F#/)	.	8A/)	.	.	.
8r	.	8r	.	8r	.	.	.
(4BB/	.	(4G/	.	(4d/	.	.	.
8C/)	.	8F#/)	.	8A/)	.	.	.
8r	.	8r	.	8r	.	.	.
=111	=111	=111	=111	=111	=111	=111	=111
(4BB/	.	(4G/	.	(4d/	.	4r	.
8Cn/)	.	8F#/)	.	8A/)	.	4dd\	.
8r	.	8r	.	8r	.	.	.
(4BB/	.	(4G/	.	4d/	.	4dd\	.
8C/)	.	8F#/)	.	16a/LL	.	8dd\L	.
.	.	.	.	16b/	.	.	.
8r	.	8r	.	16a/	.	8dd\J	.
.	.	.	.	16g/JJ	.	.	.
=112	=112	=112	=112	=112	=112	=112	=112
*clefC4	*clefC4	*	*	*	*	*	*
*	*	*	*	*^	*	*	*
(2A\	.	(4Cn/	.	(4g/	4.A\	.	2ddd\	.
.	.	8D/)	.	8f#/)	.	.	.	.
*	*	*	*	*v	*v	*	*	*
.	.	8r	.	8r	.	.	.
*	*	*	*	*^	*	*	*
[2a\)	.	(4C/	.	(4g/	4.A\	.	2r	.
.	.	8D/)	.	8f#/)	.	.	.	.
*	*	*	*	*v	*v	*	*	*
.	.	8r	.	8r	.	.	.
=113	=113	=113	=113	=113	=113	=113	=113
(4a\]	.	(4Cn/	.	(4A/ 4a/	.	1r	.
8g\L	.	8D/)	.	8cn/)	.	.	.
8f#\J	.	8r	.	8r	.	.	.
8e\L	.	(4C/	.	(4A/ 4a/	.	.	.
8d\	.	.	.	.	.	.	.
8e\	.	8D/)	.	8c/)	.	.	.
8f#\J)	.	8r	.	8r	.	.	.
=114	=114	=114	=114	=114	=114	=114	=114
(4a\	.	(4D/	.	(4cn/	.	4r	.
8g\)	.	8G/)	.	8B/)	.	4gg\	.
8r	.	8r	.	8r	.	.	.
2r	.	(4D/	.	(4c/ 4a/	.	4gg\	.
.	.	8G/)	.	8B/) 8g/	.	8gg\L	.
.	.	8r	.	8r	.	8gg\J	.
=115	=115	=115	=115	=115	=115	=115	=115
*clefF4	*clefF4	*	*	*	*	*	*
*k[f#]	*k[f#]	*k[f#]	*k[f#]	*k[f#]	*k[f#]	*k[f#]	*k[f#]
4r	.	(4d\	.	(4B/ 4g/	.	2cccn\	.
4DD/	.	8c\)	.	8A/) 8f#/	.	.	.
.	.	8r	.	8r	.	.	.
4DD/	.	(4d\	.	(4B/ 4g/	.	2r	.
8DD/L	.	8c\)	.	8A/) 8f#/	.	.	.
8DD/J	.	8r	.	8r	.	.	.
=116	=116	=116	=116	=116	=116	=116	=116
*	*	*^	*	*	*	*	*
(4FF#/	.	(4c/	4.D\	.	(4a/	.	1r	.
8GG/)	.	8B/)	.	.	8g/)	.	.	.
*	*	*v	*v	*	*	*	*	*
8r	.	8r	.	8r	.	.	.
*	*	*^	*	*	*	*	*
(4FF#/	.	(4c/	4.D\	.	(4a/	.	.	.
8GG/)	.	8B/)	.	.	8g/)	.	.	.
*	*	*v	*v	*	*	*	*	*
8r	.	8r	.	8r	.	.	.
=117	=117	=117	=117	=117	=117	=117	=117
*	*	*^	*	*	*	*	*
(4FF#/	.	(4c/	4.D\	.	(4a/	.	4r	.
8GG/)	.	8B/)	.	.	8g/)	.	4dd\	.
*	*	*v	*v	*	*	*	*	*
8r	.	8r	.	8r	.	.	.
*	*	*^	*	*	*	*	*
(4FF#/	.	16c/LL	4.D\	.	4a/	.	4dd\	.
.	.	16d/	.	.	.	.	.	.
.	.	16c/	.	.	.	.	.	.
.	.	16B/JJ	.	.	.	.	.	.
8GG/)	.	8B/	.	.	16b/LL	.	8dd\L	.
.	.	.	.	.	16cc/	.	.	.
*	*	*v	*v	*	*	*	*	*
8r	.	8r	.	16b/	.	8dd\J	.
.	.	.	.	16a/JJ	.	.	.
=118	=118	=118	=118	=118	=118	=118	=118
(2D\	.	(4A/	.	(4c/	.	2gg\	.
.	.	8G/)	.	8B/)	.	.	.
.	.	8r	.	8r	.	.	.
[2d\)	.	(4B/	.	(4g/	.	2r	.
.	.	8G/)	.	8B/)	.	.	.
.	.	8r	.	8r	.	.	.
=119	=119	=119	=119	=119	=119	=119	=119
(4d\]	.	(4B/	.	(4g/	.	1r	.
8c\L	.	8G/)	.	8d/)	.	.	.
8B\J	.	8r	.	8r	.	.	.
8A\L	.	(4B/	.	(4g/	.	.	.
8G\	.	.	.	.	.	.	.
8B\	.	8G/)	.	8d/)	.	.	.
8G\J)	.	8r	.	8r	.	.	.
=120	=120	=120	=120	=120	=120	=120	=120
(4GG/	.	(4A/	.	(4c/	.	4r	.
8FF#/)	.	8D/)	.	8A/)	.	4dd\	.
8r	.	8r	.	8r	.	.	.
(4GG/	.	(4A/	.	(4c/	.	4dd\	.
8FF#/)	.	8D/)	.	8A/)	.	8dd\L	.
8r	.	8r	.	8r	.	8dd\J	.
=121	=121	=121	=121	=121	=121	=121	=121
4r	.	(4A/	.	(4c/	.	2ddd\	.
4DD/	.	8F#/)	.	8A/)	.	.	.
.	.	8r	.	8r	.	.	.
4DD/	.	(4E/	.	(4d/	.	2r	.
8DD/L	.	8F#/)	.	8c/)	.	.	.
8DD/J	.	8r	.	8r	.	.	.
=122	=122	=122	=122	=122	=122	=122	=122
2GG/	.	(4F#/	.	(4c/	.	4r	.
.	.	8G/)	.	8B/)	.	8dd\L	.
.	.	8r	.	8r	.	8dd\J	.
4r	.	(4E/	.	(4d/ 4b/	.	2ddd\	.
8DD/L	.	8F#/)	.	8c/) 8a/	.	.	.
8DD/J	.	8r	.	8r	.	.	.
=123	=123	=123	=123	=123	=123	=123	=123
2GG/	.	(4F#/	.	(4c/	.	4r	.
.	.	8G/)	.	8B/)	.	8dd\L	.
.	.	8r	.	8r	.	8dd\J	.
4r	.	(4E/	.	(4d/ 4b/	.	2ddd\	.
8DD/L	.	8F#/)	.	8c/) 8a/	.	.	.
8DD/J	.	8r	.	8r	.	.	.
=124	=124	=124	=124	=124	=124	=124	=124
4FFn/	.	(4D/	.	(4c/	.	2r	.
8DD/L	.	8Fn/)	.	8B/)	.	.	.
8DD/J	.	8r	.	8r	.	.	.
4FF/	.	(4D/	.	(4c/	.	4r	.
8DD/L	.	8F/)	.	8B/)	.	8gg\L	.
8DD/J	.	8r	.	8r	.	8gg\J	.
=125	=125	=125	=125	=125	=125	=125	=125
4CC/	.	(4E-/	.	(4d/	.	(2gg\	.
4GG/	.	8G/)	.	8c/)	.	.	.
.	.	8r	.	8r	.	.	.
4GG/	.	(4E-/	.	(4d/	.	[2ggg\)	.
8GG/L	.	8G/)	.	8c/)	.	.	.
8GG/J	.	8r	.	8r	.	.	.
=126	=126	=126	=126	=126	=126	=126	=126
4C/	.	(4E-/	.	(4d/	.	(4ggg\]	.
4G\	.	8G/)	.	8c/)	.	8fffn\L	.
.	.	8r	.	8r	.	8eee-\J	.
4G\	.	(4E-/	.	(4d/	.	8ddd\L	.
.	.	.	.	.	.	8ccc\	.
8G\L	.	8G/)	.	8c/)	.	8eee-\	.
8G\J	.	8r	.	8r	.	8ccc\J)	.
=127	=127	=127	=127	=127	=127	=127	=127
*clefC4	*clefC4	*	*	*	*	*	*
2G/	.	(4E-/	.	(4d/	.	4gg\	.
.	.	8G/)	.	8c/)	.	4r	.
.	.	8r	.	8r	.	.	.
[2g\	.	(4E-/	.	(4d/	.	2r	.
.	.	8G/)	.	8c/)	.	.	.
.	.	8r	.	8r	.	.	.
=128	=128	=128	=128	=128	=128	=128	=128
(4g\]	.	(4E-/	.	(4d/	.	4r	.
8fn\L	.	8G/)	.	8c/)	.	4gg\	.
8e-\J	.	8r	.	8r	.	.	.
8d\L	.	(4E-/	.	(4g/	.	4gg\	.
8c\	.	.	.	.	.	.	.
8e-\	.	8G/)	.	8c/)	.	8gg\L	.
8c\J)	.	8r	.	8r	.	8gg\J	.
=129	=129	=129	=129	=129	=129	=129	=129
4G'/	.	(4En/	.	(4d/	.	2ccc\	.
4c\	.	8G/)	.	8c/)	.	.	.
.	.	8r	.	8r	.	.	.
4c\	.	(4E/	.	(4d/	.	2r	.
8c\L	.	8G/)	.	8c/)	.	.	.
8c\J	.	8r	.	8r	.	.	.
=130	=130	=130	=130	=130	=130	=130	=130
2en\	.	(4C/	.	(4d/	.	4r	.
.	.	8G/)	.	8c/)	.	8gg\L	.
.	.	8r	.	8r	.	8gg\J	.
4r	.	(4En/	.	(4d/	.	2ccc\	.
8c\L	.	8G/)	.	8c/)	.	.	.
8c\J	.	8r	.	8r	.	.	.
=131	=131	=131	=131	=131	=131	=131	=131
4en\	pp	(4C/	pp	(4c/	pp	4r	pp
8c\L	.	8En/)	.	8G/)	.	4gg\	.
8c\J	.	8r	.	8r	.	.	.
4e-\	.	(4C/	.	(4c/	.	4gg\	.
8c\L	.	8E-/)	.	8G/)	.	8gg\L	.
8c\J	.	8r	.	8r	.	8gg\J	.
=132	=132	=132	=132	=132	=132	=132	=132
[1e-	.	(4C/	.	(4g/	.	(2gg\	.
.	.	8E-/)	.	8e-/)	.	.	.
.	.	8r	.	8r	.	.	.
.	.	(4C/	.	(4e-/	.	[2ggg\)	.
.	.	8Fn/)	.	8A/)	.	.	.
.	.	8r	.	8r	.	.	.
=133	=133	=133	=133	=133	=133	=133	=133
2.e-\]	.	(4Fn/	.	(4ee-\	.	(4ggg\]	.
.	.	8c/)	.	8a/)	.	8fffn\L	.
.	.	8r	.	8r	.	8eee-\J	.
.	.	(8F\L	.	(8ee-/L	.	8ddd\L	.
.	.	8e-\J)	.	8fn/J)	.	8ccc\	.
16d\LL	.	16fn\LL	.	16g/LL	.	8bb-\	.
16e-\	.	16g\	.	16f/	.	.	.
16d\	.	16f\	.	16g/	.	8ccc\J	.
16c\JJ	.	16d#\JJ	.	16a/JJ	.	.	.
=134	=134	=134	=134	=134	=134	=134	=134
*k[b-e-]	*k[b-e-]	*k[b-e-]	*k[b-e-]	*k[b-e-]	*k[b-e-]	*k[b-e-]	*k[b-e-]
16B-\LL	f	16d\LL	f	16b-\LL	f	4ddd'\)	f
16c\	.	16e-\	.	16a\	.	.	.
16B-\	.	16d\	.	16b-\	.	.	.
16A\JJ	.	16c\JJ	.	16cc\JJ	.	.	.
*clefF4	*clefF4	*	*	*	*	*	*
16G\LL	.	16B-/LL	.	16dd\LL	.	4bb-\	.
16A\	.	16c/	.	16cc\	.	.	.
16G\	.	16B-/	.	16dd\	.	.	.
16F\JJ	.	16A/JJ	.	16ee-\JJ	.	.	.
16E-\LL	.	16G/LL	.	16ff\LL	.	4bb-\	.
16F\	.	16A/	.	16ee-\	.	.	.
16E-\	.	16G/	.	16ff\	.	.	.
16D\JJ	.	16F/JJ	.	16gg\JJ	.	.	.
16C/LL	.	16E-/LL	.	16aa\LL	.	8bb-\L	.
16D/	.	16F/	.	16gg\	.	.	.
16C/	.	16E-/	.	16aa\	.	8bb-\J	.
16BB-/JJ	.	16D/JJ	.	16bb-\JJ	.	.	.
=135	=135	=135	=135	=135	=135	=135	=135
16BB-/LL	p	16C/LL	p	2.ccc\	p	2.eee-\	p
16AA/	.	16c/	.	.	.	.	.
16BB-/	.	16B-/	.	.	.	.	.
16En/JJ	.	16c/JJ	.	.	.	.	.
16F\LL	.	16A\LL	.	.	.	.	.
16G\	.	16c\	.	.	.	.	.
16A\	.	16f\	.	.	.	.	.
16B-\JJ	.	16g\JJ	.	.	.	.	.
*clefC4	*clefC4	*	*	*	*	*	*
16c\LL	.	16a\LL	.	.	.	.	.
16Bn\	.	16g\	.	.	.	.	.
16c\	.	16a\	.	.	.	.	.
16d\JJ	.	16b-\JJ	.	.	.	.	.
16e-\LL	.	16cc\LL	.	16a/LL	.	4r	.
16f\	.	16dd\	.	16g/	.	.	.
16e-\	.	16cc\	.	16a/	.	.	.
16d\JJ	.	16b-\JJ	.	16b-/JJ	.	.	.
=136	=136	=136	=136	=136	=136	=136	=136
16c\LL	.	16a\LL	.	16cc\LL	.	4r	.
16d\	.	16b-\	.	16b-\	.	.	.
16c\	.	16a\	.	16cc\	.	.	.
16B-\JJ	.	16g\JJ	.	16dd\JJ	.	.	.
*clefF4	*clefF4	*	*	*	*	*	*
16A\LL	.	16f\LL	.	16ee-\LL	.	4ccc\	.
16B-\	.	16g\	.	16dd\	.	.	.
16A\	.	16f\	.	16ee-\	.	.	.
16G\JJ	.	16e-\JJ	.	16ff\JJ	.	.	.
16F\LL	.	16d\LL	.	16gg\LL	.	4ccc\	.
16G\	.	16e-\	.	16ff\	.	.	.
16F\	.	16d\	.	16gg\	.	.	.
16E-\JJ	.	16c\JJ	.	16aa\JJ	.	.	.
16D\LL	.	16B-\LL	.	16bb-\LL	.	8ccc\L	.
16E-\	.	16c\	.	16aa\	.	.	.
16D\	.	16B-\	.	16bb-\	.	8ccc\J	.
16C\JJ	.	16A\JJ	.	16ccc\JJ	.	.	.
=137	=137	=137	=137	=137	=137	=137	=137
16C/LL	p	16E-/LL	p	2.ddd\	p	2.fff\	p
16BB-/	.	16D/	.	.	.	.	.
16AA/	.	16C/	.	.	.	.	.
16BB-/JJ	.	16D/JJ	.	.	.	.	.
16D\LL	.	16F/LL	.	.	.	.	.
16F\	.	16B-/	.	.	.	.	.
16B-\	.	16d/	.	.	.	.	.
16d\JJ	.	16f/JJ	.	.	.	.	.
16f\LL	.	16d\LL	.	.	.	.	.
16g\	.	16e-\	.	.	.	.	.
16f\	.	16d\	.	.	.	.	.
16e-\JJ	.	16c\JJ	.	.	.	.	.
16d\LL	.	16f\LL	.	16bb-\LL	.	16fff\LL	.
16e-\	.	16f\	.	16aa\	.	16ggg\	.
16d\	.	16g\	.	16bb-\	.	16fff\	.
16c\JJ	.	16a\JJ	.	16ccc\JJ	.	16eee-\JJ	.
=138	=138	=138	=138	=138	=138	=138	=138
16B-\LL	.	16b-\LL	.	16ff\LL	.	16ddd\LL	.
16AA\	.	16C/	.	16eee-\	.	16ggg\	.
16BB-\	.	16D/	.	16ddd\	.	16fff\	.
16C\JJ	.	16E-/JJ	.	16ccc\JJ	.	16eee-\JJ	.
16D\LL	.	16F/LL	.	16bb-\LL	.	16ddd\LL	.
16E-\	.	16G/	.	16aa\	.	16ccc\	.
16F\	.	16A/	.	16gg\	.	16bb-\	.
16G\JJ	.	16B-/JJ	.	16ff\JJ	.	16aa\JJ	.
16A\LL	.	16c\LL	.	16ee-\LL	.	16gg\LL	.
16B-\	.	16d\	.	16dd\	.	16ff\	.
16c\	.	16e-\	.	16cc\	.	16ff\	.
16d\JJ	.	16f\JJ	.	16b-\JJ	.	16ff\JJ	.
8e-\L	.	8cc\L	.	8a/L	.	8ff\L	.
8d\J	.	8dd\J	.	8b-/J	.	8ff\J	.
=139	=139	=139	=139	=139	=139	=139	=139
4f\	f	4cc\	f	4a/	f	4ff\	f
8f'\L	.	8cc'\L	.	8a-'\L	.	8ff'\L	.
8e-'\J	.	8g'\J	.	8cc'\J	.	8gg'\J	.
4g\	.	4dd\	.	8bn'\L	.	4gg\	.
.	.	.	.	8b-'\	.	.	.
4r	.	8g'\L	.	8dd-'\	.	8ff-'\L	.
.	.	8a-'\J	.	8dd-'\J	.	8ee-'\J	.
=140	=140	=140	=140	=140	=140	=140	=140
8f'\L	f	4a-\	f	8dd-'\L	f	4aa-\	f
8e-'\J	.	.	.	8cc'\J	.	.	.
8r	.	8an'\L	.	8cc'\L	.	8gg-'\L	.
8d\	.	8b-'\J	.	8ddn'\J	.	8ffn'\J	.
8f'\L	.	[4b-\	.	16dd\LL	.	16bb-\LL	.
.	.	.	.	16ee-\	.	16ccc\	.
8d'\J	.	.	.	16ff\	.	16bb-\	.
.	.	.	.	16ff\JJ	.	16aa-\JJ	.
4e-\	.	16b-\LL]	.	16ee-\LL	.	16ggn\LL	.
.	.	16cc\	.	16ff\	.	16aa-\	.
.	.	16b-\	.	16ee-\	.	16gg\	.
.	.	16a-\JJ	.	16cc\JJ	.	16ff\JJ	.
=141	=141	=141	=141	=141	=141	=141	=141
4r	.	16g\LL	.	16b-/LL	.	16ee-\LL	.
.	.	16a-\	.	16cc/	.	16ff\	.
.	.	16g\	.	16b-/	.	16ee-\	.
.	.	16f\JJ	.	16a-/JJ	.	16dd\JJ	.
4E-\	.	16e-\LL	.	16g/LL	.	16cc\LL	.
.	.	16f\	.	16a-/	.	16dd\	.
.	.	16e-\	.	16g/	.	16cc\	.
.	.	16d\JJ	.	16f/JJ	.	16b-\JJ	.
4E-\	.	16c\LL	.	16e-/LL	.	16a-/LL	.
.	.	16d\	.	16f/	.	16b-/	.
.	.	16c\	.	16e-/	.	16a-/	.
.	.	16B-\JJ	.	16d/JJ	.	16g/JJ	.
8E-\L	.	16A-/LL	.	16c/LL	.	16f/LL	.
.	.	16G/	.	16B-/	.	16g/	.
8E-\J	.	16A-/	.	16c/	.	16f/	.
.	.	16G/JJ	.	16B-/JJ	.	16e-/JJ	.
=142	=142	=142	=142	=142	=142	=142	=142
2.BBn/	p	2.E-/ 2.G/	p	2.Bn/ 2.e-/	p	(16e-/LL	p
.	.	.	.	.	.	16G/	.
.	.	.	.	.	.	16e-/	.
.	.	.	.	.	.	16g/JJ	.
.	.	.	.	.	.	16ee-\LL	.
.	.	.	.	.	.	16g\	.
.	.	.	.	.	.	16ee-\	.
.	.	.	.	.	.	16gg\JJ	.
.	.	.	.	.	.	16ee-\LL	.
.	.	.	.	.	.	16gg\	.
.	.	.	.	.	.	16eee-\	.
.	.	.	.	.	.	16gg\JJ	.
4r	.	4r	.	16gg\LL	.	8eee-'\L)	.
.	.	.	.	16aa-\	.	.	.
.	.	.	.	16gg\	.	[8eee-\J	.
.	.	.	.	16ff\JJ	.	.	.
=143	=143	=143	=143	=143	=143	=143	=143
4r	.	16g\LL	.	16ee-\LL	.	16eee-\LL]	.
.	.	16a-\	.	16cc\	.	16fff\	.
.	.	16g\	.	16b-\	.	16eee-\	.
.	.	16f\JJ	.	16a-\JJ	.	16ddd\JJ	.
4E-\	.	16e-\LL	.	16g/LL	.	16ccc\LL	.
.	.	16f\	.	16a-/	.	16ddd\	.
.	.	16e-\	.	16g/	.	16ccc\	.
.	.	16d\JJ	.	16f/JJ	.	16bb-\JJ	.
4E-\	.	16c\LL	.	16e-/LL	.	16aa-\LL	.
.	.	16d\	.	16f/	.	16bb-\	.
.	.	16c\	.	16e-/	.	16aa-\	.
.	.	16B-\JJ	.	16d/JJ	.	16gg\JJ	.
8E-\L	.	16A-/LL	.	16c/LL	.	16ff\LL	.
.	.	16G/	.	16B-/	.	16gg\	.
8E-\J	.	16A-/	.	16c/	.	16ff\	.
.	.	16G/JJ	.	16B-/JJ	.	16ee-\JJ	.
=144	=144	=144	=144	=144	=144	=144	=144
2.AAn/	p	(2.G-/	p	(2.c/	p	(16e-/LL	p
.	.	.	.	.	.	16c/	.
.	.	.	.	.	.	16An/	.
.	.	.	.	.	.	16c/JJ	.
.	.	.	.	.	.	16e-/LL	.
.	.	.	.	.	.	16g-/	.
.	.	.	.	.	.	16an/	.
.	.	.	.	.	.	16cc/JJ	.
.	.	.	.	.	.	16ee-\LL	.
.	.	.	.	.	.	16gg-\	.
.	.	.	.	.	.	16ff\	.
.	.	.	.	.	.	16ee-\JJ)	.
[4AA-/	.	4F/)	.	8c-/L	.	(16ee-\LL	.
.	.	.	.	.	.	16dd\	.
.	.	.	.	8B-/J)	.	16ff\	.
.	.	.	.	.	.	16dd\JJ)	.
=145	=145	=145	=145	=145	=145	=145	=145
2AA-/]	.	2F/	.	2B-/ 2f/	.	(16ff\LL	.
.	.	.	.	.	.	16ggn\	.
.	.	.	.	.	.	16aa-\	.
.	.	.	.	.	.	16bb-\JJ	.
.	.	.	.	.	.	16ccc\LL	.
.	.	.	.	.	.	16ddd\	.
.	.	.	.	.	.	16eee-\	.
.	.	.	.	.	.	16fff\JJ)	.
4GG/	.	4Gn/	.	4B-/ 4e-/	.	8ggg'\L	.
.	.	.	.	.	.	8aaa-'\	.
8FF'/L	.	8F'/L	.	8A-'/L 8e-'/	.	8bbb-'\	.
8EE-'/J	.	8E-'/J	.	8G'/J 8e-'/	.	8bbbn'\J	.
=146	=146	=146	=146	=146	=146	=146	=146
4AA-/	.	4A-/	.	4cn/ 4e-/	.	8cccc\L	.
.	.	.	.	.	.	(16cc\L	.
.	.	.	.	.	.	16dd\JJ	.
8GG'/L	.	8G'/L	.	8B-'/L 8e-'/	.	16ee-\LL	.
.	.	.	.	.	.	16ff\	.
8FF'/J	.	8F'/J	.	8A-'/J 8e-'/	.	16gg\	.
.	.	.	.	.	.	16aa-\JJ)	.
4BB-/	.	4F/	.	4A-/ 4d/	.	(16aa-\LL	.
.	.	.	.	.	.	16gg\	.
.	.	.	.	.	.	16aa-\	.
.	.	.	.	.	.	16bb-\JJ	.
4BB-/	.	8E-'/L	.	8An'/L	.	16ccc\LL	.
.	.	.	.	.	.	16ddd\	.
.	.	8F'/J	.	8A-'/J	.	16eee-\	.
.	.	.	.	.	.	16fff\JJ)	.
=147	=147	=147	=147	=147	=147	=147	=147
4EE-/	f	4E-/	f	4G/	f	(16ggg\LL	f
.	.	.	.	.	.	16fff\	.
.	.	.	.	.	.	16eee-\	.
.	.	.	.	.	.	16ddd\JJ	.
4r	.	4r	.	4r	.	16eee-\LL	.
.	.	.	.	.	.	16fff\	.
.	.	.	.	.	.	16ggg\	.
.	.	.	.	.	.	16aaa-\JJ)	.
4r	.	(16d\LL	.	(16ff\LL	.	8bbb-'\L	.
.	.	16c\	.	16ee-\	.	.	.
.	.	16B-\	.	16dd\	.	(16bb-\L	.
.	.	16An\JJ	.	16cc\JJ	.	16ccc\JJ	.
8r	.	16B-\LL	.	16dd\LL	.	16bb-\LL	.
.	.	16c\	.	16ee-\	.	16aa-\	.
8EE-/	.	16d\	.	16ff\	.	16gg\	.
.	.	16e-\JJ)	.	16gg\JJ)	.	16ff\JJ)	.
=148	=148	=148	=148	=148	=148	=148	=148
4EE-/	.	4e-\	.	4gg\	.	(16gg\LL	.
.	.	.	.	.	.	16ff\	.
.	.	.	.	.	.	16ee-\	.
.	.	.	.	.	.	16dd\JJ	.
4r	.	4r	.	4r	.	16ee-\LL	.
.	.	.	.	.	.	16ff\	.
.	.	.	.	.	.	16gg\	.
.	.	.	.	.	.	16aa-\JJ)	.
4r	.	(16d\LL	.	(16ff\LL	.	8bb-'\L	.
.	.	16c\	.	16ee-\	.	.	.
.	.	16B-\	.	16dd\	.	(16bb-\L	.
.	.	16An\JJ	.	16cc\JJ	.	16ccc\JJ	.
8r	.	16B-\LL	.	16dd\LL	.	16bb-\LL	.
.	.	16c\	.	16ee-\	.	16aa-\	.
8EE-/	.	16d\	.	16ff\	.	16gg\	.
.	.	16e-\JJ)	.	16gg\JJ)	.	16ff\JJ)	.
=149	=149	=149	=149	=149	=149	=149	=149
8EE-/L	f	4e-\	f	8gg'\	f	8gg'\L	f
8FF/	.	.	.	8a-'/L	.	(16dd\L	.
.	.	.	.	.	.	16ff\JJ	.
8GG/	.	4r	.	8b-'/J	.	8ee-'\)	.
8F#/J	.	.	.	(16an\LL	.	8e-/L	.
.	.	.	.	16cc\JJ	.	.	.
8G\L	.	8r	.	8b-'\)	.	8e-/J	.
8d\	.	(16f\LL	.	8r	.	8r	.
.	.	16a-\JJ	.	.	.	.	.
8e-\J	.	8g'\L)	.	8r	.	8r	.
(16d\LL	.	8b-'\J	.	(16b-/LL	.	(16ff\LL	.
16fn\JJ	.	.	.	16f/JJ	.	16aa-\JJ)	.
=150	=150	=150	=150	=150	=150	=150	=150
4e-\)	p	4b-\	p	4g-/)	p	(16gg-\LL	p
.	.	.	.	.	.	16ff\	.
.	.	.	.	.	.	16ee-\	.
.	.	.	.	.	.	16dd\JJ	.
4r	.	4r	.	4r	.	16ee-\LL	.
.	.	.	.	.	.	16ff\	.
.	.	.	.	.	.	16gg-\	.
.	.	.	.	.	.	16aa-\JJ)	.
4r	.	(16d\LL	.	(16f/LL	.	8bb-'\L	.
.	.	16c\	.	16e-/	.	.	.
.	.	16B-\	.	16d/	.	(16bb-\L	.
.	.	16d\JJ	.	16e-/JJ	.	16ccc-\JJ	.
8B-\L	.	16f\LL	.	16a-/LL	.	16bb-\LL	.
.	.	16d\	.	16f/	.	16aa-\	.
8B-\J	.	16e-\	.	16g-/	.	16gg-\	.
.	.	16f\JJ)	.	16a-/JJ)	.	16ff\JJ)	.
=151	=151	=151	=151	=151	=151	=151	=151
4e-\	.	(16g-\LL	.	4b-\	.	4ee-\	.
.	.	16f\	.	.	.	.	.
.	.	16e-\	.	.	.	.	.
.	.	16d\JJ	.	.	.	.	.
4r	.	16e-\LL	.	4r	.	4r	.
.	.	16f\	.	.	.	.	.
.	.	16g-\	.	.	.	.	.
.	.	16a-\JJ)	.	.	.	.	.
4r	.	(16d\LL	.	(16f/LL	.	8bb-'\L	.
.	.	16c\	.	16e-/	.	.	.
.	.	16B-\	.	16d/	.	(16bb-\L	.
.	.	16d\JJ	.	16f/JJ	.	16ccc-\JJ	.
8BB-'/L	.	16f\LL	.	16a-/LL	.	16bb-\LL	.
.	.	16d\	.	16f/	.	16aa-\	.
8BB-'/J	.	16e-\	.	16g-/	.	16gg-\	.
.	.	16f\JJ)	.	16a-/JJ)	.	16ff\JJ)	.
=152	=152	=152	=152	=152	=152	=152	=152
8EE-'/L	.	8e-'/L	.	8b-'/L	.	8gg-'\L	.
8FF'/	.	8A-'/	.	8d'/	.	(16gg-\L	.
.	.	.	.	.	.	16aa-\JJ	.
8GG-'/	.	8B-'/	.	8e-'/	.	16gg-\LL	.
.	.	.	.	.	.	16ff\	.
8GGn'/J	.	8B-'/J	.	8e-'/J	.	16ee-\	.
.	.	.	.	.	.	16dd-\JJ)	.
8AA-'/L	.	8c'/L	.	8e-'/L	.	8ccn'\L	.
8BB-'/J	.	8Gn'/	.	8e-'/	.	(16cc\L	.
.	.	.	.	.	.	16dd-\JJ	.
8AA-'/L	.	8A-'/	.	8e-'/	.	16cc\LL	.
.	.	.	.	.	.	16b-\	.
(16AA-/L	.	8A-'/J	.	8c'/J	.	16a-\	.
16GG-/JJ	.	.	.	.	.	16ee-\JJ)	.
=153	=153	=153	=153	=153	=153	=153	=153
16FF/LL	f	4A-/	f	4d-/	f	4ff\	f
16EE-/	.	.	.	.	.	.	.
16DD-/	.	.	.	.	.	.	.
16CC/JJ	.	.	.	.	.	.	.
16DD-/LL	.	4r	.	4r	.	4r	.
16EE-/	.	.	.	.	.	.	.
16FF/	.	.	.	.	.	.	.
16GG-/JJ)	.	.	.	.	.	.	.
8AA-'/	.	8A-'/L	.	(16c/LL	.	(16ee-\LL	.
.	.	.	.	16B-/	.	16dd-\	.
8r	.	(16A-/L	.	16A-/	.	16cc\	.
.	.	16B-/JJ	.	16Gn/JJ	.	16b-\JJ	.
8r	.	16A-/LL	.	16A-/LL	.	16cc\LL	.
.	.	16G-/	.	16B-/	.	16dd-\	.
(16AA-/LL	.	16F/	.	16c/	.	16ee-\	.
16GG-/JJ	.	16E-/JJ)	.	16d-/JJ)	.	16ff\JJ)	.
=154	=154	=154	=154	=154	=154	=154	=154
16FF/LL	.	4D-/	.	4dd-\	.	4ff\	.
16EE-/	.	.	.	.	.	.	.
16DD-/	.	.	.	.	.	.	.
16CC/JJ	.	.	.	.	.	.	.
16DD-/LL	.	(16g-\LL	.	4r	.	4r	.
16EE-/	.	16f\	.	.	.	.	.
16FF/	.	16e-\	.	.	.	.	.
16GG-/JJ)	.	16d-\JJ)	.	.	.	.	.
8AA-'/	.	4c'\	.	(16cc\LL	.	(16ccc\LL	.
.	.	.	.	16dd-\	.	16bb-\	.
16A-\LL	.	.	.	16cc\	.	16aa-\	.
16B-\JJ	.	.	.	16b-\JJ	.	16ggn\JJ	.
16A-\LL	.	(16f\LL	.	16cc\LL	.	16aa-\LL	.
16G-\	.	16e-\	.	16dd-\	.	16bb-\	.
16F\	.	16d-\	.	16ee-\	.	16ccc\	.
16E-\JJ	.	16c\JJ)	.	16ff\JJ)	.	16ddd-\JJ)	.
=155	=155	=155	=155	=155	=155	=155	=155
8F'\L	.	4d-'\	.	8ff'\L	.	8ddd-'\L	.
(16F\L	.	.	.	(16dd-\L	.	(16bb-\L	.
16G-\JJ	.	.	.	16cc\JJ	.	16aa\JJ	.
16F\LL	.	(16d-\LL	.	16dd-\LL	.	16bb-\LL	.
16E-\	.	16c\	.	16ee-\	.	16ccc\	.
16D-\	.	16B-\	.	16ff\)	.	16ddd-\	.
16C\JJ)	.	16A-\JJ)	.	16ff'\JJ	.	16eee-\JJ)	.
8BB-'/	.	8Gn'\L	.	8ggn'\	.	8eee-'\L	.
(16E-\LL	.	(16e-\L	.	(16e-/LL	.	(16ee-\L	.
16F\JJ	.	16f\JJ	.	16dn/JJ	.	16ddn\JJ	.
16E-\LL	.	16e-\LL	.	16e-/LL	.	16ee-\LL	.
16D-\	.	16d-\	.	16f/	.	16ff\	.
16C\	.	16c\	.	16g/	.	16gg\	.
16BB-\JJ)	.	16B-\JJ)	.	16a-/JJ)	.	16aa-\JJ)	.
=156	=156	=156	=156	=156	=156	=156	=156
8AA-'/L	.	8A-'/L	.	4a-/	.	4aa-'\	.
8e-'\	.	8ee-'\	.	.	.	.	.
8c'\	.	8cc'\	.	4r	.	4eee-'\	.
8A-'\J	.	8a-'\J	.	.	.	.	.
8G-'\L	.	8g-'\L	.	2r	.	[2aaa-\	.
8E-'\	.	8e-'\	.	.	.	.	.
8C'\	.	8c'\	.	.	.	.	.
8AA-'\J	.	8A-'\J	.	.	.	.	.
=157	=157	=157	=157	=157	=157	=157	=157
8GG-/L	.	8G-/L	.	4dd-'\	.	1aaa-_	.
8FF/	.	8F/	.	.	.	.	.
8AA-/	.	8A-/	.	4a-'/	.	.	.
8D-/J	.	8d-/J	.	.	.	.	.
8F\L	.	8f\L	.	2d-/	.	.	.
8A-\	.	8a-\	.	.	.	.	.
8d-\	.	8dd-\	.	.	.	.	.
8Gn\J	.	8gn\J	.	.	.	.	.
=158	=158	=158	=158	=158	=158	=158	=158
4AA-'/	.	4A-'/	.	8c'/L	.	8aaa-'\L]	.
.	.	.	.	8ee-'\	.	8eee-'\	.
4E-'\	.	4e-'\	.	8cc'\	.	8ccc'\	.
.	.	.	.	8a-'\J	.	8aa-'\J	.
2A-\	.	2a-\	.	8g-/L	.	8gg-\L	.
.	.	.	.	8e-/	.	8ee-\	.
.	.	.	.	8c/	.	8cc\	.
.	.	.	.	8A-/J	.	8a-\J	.
=159	=159	=159	=159	=159	=159	=159	=159
8GG-/L	.	8G-/L	.	8g-/L	.	8g-/L	.
8FF/	.	8F/	.	8f/	.	8f/	.
8AA-/	.	8A-/	.	8a-/	.	8a-/	.
8D-/J	.	8d-/J	.	8dd-/J	.	8dd-/J	.
8F\L	.	8f\L	.	8f/L	.	8ff\L	.
8A-\	.	8a-\	.	8a-/	.	8aa-\	.
8d-\	.	8dd-\	.	8dd-/	.	8ddd-\	.
8F\J	.	8f\J	.	8ff/J	.	8fff\J	.
=160	=160	=160	=160	=160	=160	=160	=160
*clefC4	*clefC4	*	*	*	*	*	*
8A-\	.	4a-\	.	4aa-\	.	4aaa-\	.
8r	.	.	.	.	.	.	.
8B-\	.	8Gn/	.	4r	.	4r	.
8r	.	8r	.	.	.	.	.
8c\	.	8G-/	.	8A-/	.	4r	.
8r	.	8r	.	8r	.	.	.
8d-\	.	8F/	.	8A-/	.	8B-/	.
8r	.	8r	.	8r	.	8r	.
=161	=161	=161	=161	=161	=161	=161	=161
8dn\	p	8F-/	p	8A-/	p	8c-/	p
8r	.	8r	.	8r	.	8r	.
8e-\	.	8E-/	.	8A-/	.	8cn/	.
8r	.	8r	.	8r	.	8r	.
8f\	.	8Dn/	.	8A-/	.	8dn/	.
8r	.	8r	.	8r	.	8r	.
8g-\	.	8D-/	.	8B--/	.	8e-/	.
8r	.	8r	.	8r	.	8r	.
=162	=162	=162	=162	=162	=162	=162	=162
*k[b-e-a-d-]	*k[b-e-a-d-]	*k[b-e-a-d-]	*k[b-e-a-d-]	*k[b-e-a-d-]	*k[b-e-a-d-]	*k[b-e-a-d-]	*k[b-e-a-d-]
2.g-\	.	2.C/	.	2.B--/	.	2.e-/	.
4r	.	(16A-/LL	.	4r	.	4r	.
.	.	16B-/	.	.	.	.	.
.	.	16A-/	.	.	.	.	.
.	.	16G-/JJ)	.	.	.	.	.
=163	=163	=163	=163	=163	=163	=163	=163
1r	.	2.F/	.	1r	.	1r	.
.	.	(16F/LL	.	.	.	.	.
.	.	16G-/	.	.	.	.	.
.	.	16F/	.	.	.	.	.
.	.	16E-/JJ)	.	.	.	.	.
=164	=164	=164	=164	=164	=164	=164	=164
(2A-\	.	[1D-	.	2r	.	(2f/	.
2B--\	.	.	.	(2f/	.	2dd-\)	.
=165	=165	=165	=165	=165	=165	=165	=165
2B-\)	.	1D-_	.	2g-/	.	(4cc'\	.
.	.	.	.	.	.	4b-'\	.
(4c-'\	.	.	.	4e-/	.	4a-'\	.
4cn'\)	.	.	.	[4A-/) 4e-/	.	4g-'\)	.
=166	=166	=166	=166	=166	=166	=166	=166
2d-\	.	2D-/]	.	1A-_	.	(4f/	.
.	.	.	.	.	.	4.a-/)	.
*clefF4	*clefF4	*	*	*	*	*	*
8r	.	2r	.	.	.	.	.
(16AA-/LL	.	.	.	.	.	8r	.
16GGn/JJ	.	.	.	.	.	.	.
16AA-/LL	.	.	.	.	.	4r	.
16BB-/	.	.	.	.	.	.	.
16AA-/	.	.	.	.	.	.	.
16GG-/JJ)	.	.	.	.	.	.	.
=167	=167	=167	=167	=167	=167	=167	=167
[2FF/	.	8r	.	1A-_	.	1r	.
.	.	(16A-/LL	.	.	.	.	.
.	.	16Gn/JJ	.	.	.	.	.
.	.	16A-/LL	.	.	.	.	.
.	.	16B-/	.	.	.	.	.
.	.	16A-/	.	.	.	.	.
.	.	16G-/JJ)	.	.	.	.	.
8FF/L]	.	[2F/	.	.	.	.	.
(16FF/L	.	.	.	.	.	.	.
16EEn/JJ	.	.	.	.	.	.	.
16FF/LL	.	.	.	.	.	.	.
16GG-/	.	.	.	.	.	.	.
16FF/	.	.	.	.	.	.	.
16EE-/JJ)	.	.	.	.	.	.	.
=168	=168	=168	=168	=168	=168	=168	=168
2DD-/	.	8F/L]	.	2A-/]	.	(2f/	.
.	.	(16F/L	.	.	.	.	.
.	.	16En/JJ	.	.	.	.	.
.	.	16F/LL	.	.	.	.	.
.	.	16G-/	.	.	.	.	.
.	.	16F/	.	.	.	.	.
.	.	16E-/JJ)	.	.	.	.	.
*clefC4	*clefC4	*	*	*	*	*	*
[2f\	.	[2D-/	.	2B--/	.	2dd-\)	.
=169	=169	=169	=169	=169	=169	=169	=169
(2f\]	.	2D-/]	.	2B-/	.	(4cc'\	.
.	.	.	.	.	.	4b-'\	.
[4e-\	.	2E-/	.	(4c'/	.	4a-'\	.
8e-\L]	.	.	.	4B-'/)	.	4gn'\)	.
8d-\J)	.	.	.	.	.	.	.
=170	=170	=170	=170	=170	=170	=170	=170
(2c\	.	(2E-/	.	(2B--/	.	(2g-/	.
2d-\)	.	2F/)	.	2A-/)	.	2f/)	.
=171	=171	=171	=171	=171	=171	=171	=171
2d-\	.	2G-/	.	2B-/	.	2e-/	.
2d-\	.	2Gn/	.	2B-/	.	2e-/	.
=172	=172	=172	=172	=172	=172	=172	=172
*clefF4	*clefF4	*	*	*	*	*	*
(4AA-/	.	(4A-/	.	2c/	.	2e-/	.
4AAn/	.	4G-/	.	.	.	.	.
4BB-/	.	2F/)	.	2B-/	.	2d-/	.
*clefC4	*clefC4	*	*	*	*	*	*
4f\)	.	.	.	.	.	.	.
=173	=173	=173	=173	=173	=173	=173	=173
(2.f\	.	(2.F/	.	2B-/	.	2d-/	.
.	.	.	.	2B-/	.	2d-/	.
4gn\)	.	4En/)	.	.	.	.	.
=174	=174	=174	=174	=174	=174	=174	=174
2an\	p	2.F/	p	2.An/	p	2.c/	p
*clefF4	*clefF4	*	*	*	*	*	*
[4FF/	.	.	.	.	.	.	.
(16FF/LL]	.	4r	.	4r	.	4r	.
16GGn/	.	.	.	.	.	.	.
16FF/	.	.	.	.	.	.	.
16EE-/JJ)	.	.	.	.	.	.	.
=175	=175	=175	=175	=175	=175	=175	=175
*k[b-e-]	*k[b-e-]	*k[b-e-]	*k[b-e-]	*k[b-e-]	*k[b-e-]	*k[b-e-]	*k[b-e-]
2.DD/	.	1r	.	1r	.	1r	.
(16DD/LL	.	.	.	.	.	.	.
16EE-/	.	.	.	.	.	.	.
16DD/	.	.	.	.	.	.	.
16CC/JJ)	.	.	.	.	.	.	.
=176	=176	=176	=176	=176	=176	=176	=176
[1BB-	.	(2D/	.	1r	.	1r	.
.	.	2B-/)	.	.	.	.	.
=177	=177	=177	=177	=177	=177	=177	=177
1BB-]	.	(4A'/	.	(2c/	.	1r	.
.	.	4G'/	.	.	.	.	.
.	.	4F'/	.	2a/)	.	.	.
.	.	4E-'/)	.	.	.	.	.
=178	=178	=178	=178	=178	=178	=178	=178
[2BB-/	.	(4D/	.	(4b-\	.	(2ff\	.
.	.	[2.F/)	.	4dd\	.	.	.
8BB-/L]	.	.	.	4ff\	.	2ddd\	.
(16FF/L	.	.	.	.	.	.	.
16EEn/JJ	.	.	.	.	.	.	.
16FF/LL	.	.	.	4bb-\)	.	.	.
16GG/	.	.	.	.	.	.	.
16FF/	.	.	.	.	.	.	.
16EE-/JJ)	.	.	.	.	.	.	.
=179	=179	=179	=179	=179	=179	=179	=179
[2DD/	.	8F/L]	.	[2f/	.	2.fff\	.
.	.	(16F/L	.	.	.	.	.
.	.	16En/JJ	.	.	.	.	.
.	.	16F/LL	.	.	.	.	.
.	.	16G/	.	.	.	.	.
.	.	16F/	.	.	.	.	.
.	.	16E-/JJ)	.	.	.	.	.
8DD/L]	.	4D/	.	8f/L]	.	.	.
(16DD/L	.	.	.	(16f/L	.	.	.
16CC#/JJ	.	.	.	16en/JJ	.	.	.
16DD/LL	.	4r	.	16f/LL	.	4aaa\	.
16EE-/	.	.	.	16g/	.	.	.
16DD/	.	.	.	16f/	.	.	.
16CCn/JJ)	.	.	.	16e-/JJ)	.	.	.
=180	=180	=180	=180	=180	=180	=180	=180
1BB-	p	2D/	p	2d/	p	4bbb-\)	p
.	.	.	.	.	.	[2.fff\	.
.	.	(4d\	.	2bb-\	.	.	.
.	.	4b-\)	.	.	.	.	.
=181	=181	=181	=181	=181	=181	=181	=181
[1C	.	(4a'\	.	(4aa'\	.	(2.fff\]	.
.	.	4g'\	.	4gg'\	.	.	.
.	.	4f'\	.	4ff'\	.	.	.
.	.	4G'/)	.	4een'\)	.	4eeen\)	.
=182	=182	=182	=182	=182	=182	=182	=182
(2C/]	p	2F/ 2A/	p	(2ee-\	p	(2eee-\	p
2D/)	.	2F/ 2B-/	.	2dd\)	.	2ddd\)	.
=183	=183	=183	=183	=183	=183	=183	=183
2E-\	.	2G/ 2B-/	.	2cc\	.	2ccc\	.
2En\	.	2B-\ 2g\	.	2cc\	.	2ccc\	.
=184	=184	=184	=184	=184	=184	=184	=184
(2.F\	p	(4.A/	p	2f/	p	(4.ccc\	p
.	.	8Bn/	.	.	.	8ddd\	.
.	.	4c/)	.	4f/	.	4eee-\)	.
4AA/)	.	4r	.	4r	.	4r	.
=185	=185	=185	=185	=185	=185	=185	=185
(4.d\	pp	(4.f\	pp	(2.b-/	pp	(4.bb-\	pp
8c\	.	8e-\	.	.	.	8ccc\	.
4B-\)	.	4d\)	.	.	.	4ddd\)	.
16BB-/LL	.	16B-/LL	.	4d/)	.	16r	.
16D'/	.	16d'/	.	.	.	16dd'/LL	.
16C'/	.	16c'/	.	.	.	16cc'/	.
16BB-'/JJ	.	16B-'/JJ	.	.	.	16b-'/JJ	.
=186	=186	=186	=186	=186	=186	=186	=186
4AA/	.	4A/	.	4r	.	4a/	.
16r	.	16r	.	16r	.	16r	.
16BB-/LL	.	16B-/LL	.	16B-/LL	.	16b-/LL	.
16AA/	.	16A/	.	16A/	.	16a/	.
16GG/JJ	.	16G/JJ	.	16G/JJ	.	16g/JJ	.
4FF/	.	4F/	.	4f/	.	4f/	.
16r	.	16r	.	16r	.	16r	.
16FF/LL	.	16A/LL	.	16f/LL	.	16ee-\LL	.
16GG/	.	16B-/	.	16f/	.	16dd\	.
16AA/JJ	.	16c/JJ	.	16f/JJ	.	16cc\JJ	.
=187	=187	=187	=187	=187	=187	=187	=187
4BB-/	.	4F/	.	4f/	.	4dd\	.
4r	.	4r	.	4r	.	4r	.
4r	.	4r	.	4r	.	4r	.
16r	.	16r	.	16r	.	16r	.
16BB-/LL	.	16B-/LL	.	16B-/LL	.	16b-/LL	.
16AA/	.	16A/	.	16A/	.	16a/	.
16GG/JJ	.	16G/JJ	.	16G/JJ	.	16g/JJ	.
=188	=188	=188	=188	=188	=188	=188	=188
4FF#/	.	4F#/	.	4f#/	.	4f#/	.
16r	.	16r	.	16r	.	16r	.
16GG/LL	.	16G/LL	.	16g/LL	.	16g/LL	.
16FF#/	.	16F#/	.	16f#/	.	16f#/	.
16EEn/JJ	.	16En/JJ	.	16en/JJ	.	16en/JJ	.
4DD/	.	4D/	.	4d/	.	4d/	.
16r	.	16r	.	16r	.	16r	.
16DD/LL	.	16D/LL	.	16d/LL	.	16cc/LL	.
16EE/	.	16D/	.	16d/	.	16b-/	.
16FF#/JJ	.	16D/JJ	.	16d/JJ	.	16a/JJ	.
=189	=189	=189	=189	=189	=189	=189	=189
4GG/	.	4D/	.	4d/	.	4b-/	.
16r	.	16r	.	16r	.	16r	.
16GG/LL	.	16D/LL	.	16B-/LL	.	16a/LL	.
16AA/	.	16D/	.	16B-/	.	16g/	.
16BB-/JJ	.	16D/JJ	.	16B-/JJ	.	16fn/JJ	.
4C/	.	4G/	.	4B-/	.	4en/	.
16r	.	16r	.	16r	.	16r	.
16C/LL	.	16En/LL	.	16b-/LL	.	16dd\LL	.
16C/	.	16Fn/	.	16a/	.	16cc\	.
16C/JJ	.	16G/JJ	.	16g/JJ	.	16b-\JJ	.
=190	=190	=190	=190	=190	=190	=190	=190
4F\	.	4A/	.	4c/	.	4a/	.
16r	.	16r	.	16r	.	16r	.
16F\LL	.	16A/LL	.	16cc\LL	.	16gg\LL	.
16F\	.	16A/	.	16cc\	.	16ff\	.
16F\JJ	.	16A/JJ	.	16cc\JJ	.	16ee-\JJ	.
4G\	.	4B-/	.	4b-\	.	4dd\	.
16r	.	16r	.	16r	.	16r	.
16G\LL	.	16d\LL	.	16b-\LL	.	16bb-\LL	.
16G\	.	16d\	.	16b-\	.	16aa\	.
16G\JJ	.	16d\JJ	.	16b-\JJ	.	16bb-\JJ	.
=191	=191	=191	=191	=191	=191	=191	=191
4E-\	pp	4g\	pp	4b-\	pp	4cc\	pp
16r	.	16r	.	16r	.	16r	.
16E-\LL	.	16c\LL	.	16g/LL	.	16gg\LL	.
16E-\	.	16c\	.	16g/	.	16ff#\	.
16E-\JJ	.	16c\JJ	.	16g/JJ	.	16gg\JJ	.
4F\	.	4c\	.	4f/	.	4a/	.
[4F\	.	[4B-/	.	[4f/	.	(16ddd\LL	.
.	.	.	.	.	.	16eee-\	.
.	.	.	.	.	.	16ddd\	.
.	.	.	.	.	.	16ccc#\JJ	.
=192	=192	=192	=192	=192	=192	=192	=192
(4F\]	.	(2B-/]	.	(4f/]	.	16ddd\LL	.
.	.	.	.	.	.	16eee-\	.
.	.	.	.	.	.	16ddd\	.
.	.	.	.	.	.	16cccn\JJ	.
8BB-\L	.	.	.	2g/	.	16bb-\LL	.
.	.	.	.	.	.	16ccc\	.
[8G\J)	.	.	.	.	.	16bb-\	.
.	.	.	.	.	.	16aa\JJ)	.
(4G\]	.	2c/)	.	.	.	(16aa\LL	.
.	.	.	.	.	.	16bb-\	.
.	.	.	.	.	.	16aa\	.
.	.	.	.	.	.	16gg\JJ	.
8C\L	.	.	.	[4a/)	.	16ffn\LL	.
.	.	.	.	.	.	16gg\	.
[8A\J)	.	.	.	.	.	16ff\	.
.	.	.	.	.	.	16een\JJ	.
=193	=193	=193	=193	=193	=193	=193	=193
(8A\L]	.	2d\	.	(4a/]	.	16ee-\LL	.
.	.	.	.	.	.	16ff\	.
8F\	.	.	.	.	.	16ee-\	.
.	.	.	.	.	.	16dd\JJ	.
8D\)	.	.	.	[4b-\	.	16cc\LL	.
.	.	.	.	.	.	16dd\	.
[8B-\J	.	.	.	.	.	16cc\	.
.	.	.	.	.	.	16b-\JJ)	.
8B-\L]	.	(8g\	.	4b-\]	.	(16b-/LL	.
.	.	.	.	.	.	16cc/	.
(8E-\	.	4c\	.	.	.	16b-/	.
.	.	.	.	.	.	16a/JJ)	.
8En\	.	.	.	4cc\)	.	(16a/LL	.
.	.	.	.	.	.	16g/	.
8F\J)	.	8a\)	.	.	.	16f/	.
.	.	.	.	.	.	16e-/JJ)	.
=194	=194	=194	=194	=194	=194	=194	=194
4BB-'/	p	4b-\	p	16dd\	p	4d'/	p
.	.	.	.	16g/LL	.	.	.
.	.	.	.	16f/	.	.	.
.	.	.	.	16e-/JJ	.	.	.
4BB-'/	.	4r	.	16d/LL	.	4dd'\	.
.	.	.	.	16e-/	.	.	.
.	.	.	.	16f/	.	.	.
.	.	.	.	16g/JJ	.	.	.
4AA'/	.	16r	.	8c/	.	4ff'\	.
.	.	16F/LL	.	.	.	.	.
.	.	16En/	.	8r	.	.	.
.	.	16D/JJ	.	.	.	.	.
4AA'/	.	16C/LL	.	4r	.	4ff'\	.
.	.	16D/	.	.	.	.	.
.	.	16E/	.	.	.	.	.
.	.	16F/JJ	.	.	.	.	.
=195	=195	=195	=195	=195	=195	=195	=195
(4GG/	.	(4En/	.	16r	.	(4gg\	.
.	.	.	.	(16d/LL	.	.	.
.	.	.	.	16c/	.	.	.
.	.	.	.	16B-/JJ)	.	.	.
4FF/	.	4D/	.	(16B-/LL	.	4aa\	.
.	.	.	.	16c/	.	.	.
.	.	.	.	16B-/	.	.	.
.	.	.	.	16A/JJ)	.	.	.
4EEn/	.	4C/	.	(16A/LL	.	4bb-\	.
.	.	.	.	16B-/	.	.	.
.	.	.	.	16A/	.	.	.
.	.	.	.	16G/JJ)	.	.	.
4EE-/)	.	4c/)	.	(16g/LL	.	4ccc\)	.
.	.	.	.	16a/	.	.	.
.	.	.	.	16g/	.	.	.
.	.	.	.	16f/JJ)	.	.	.
=196	=196	=196	=196	=196	=196	=196	=196
4DD'/	p	16r	p	4f/	p	4bb-'\	p
.	.	(16d/LL	.	.	.	.	.
.	.	16c/	.	.	.	.	.
.	.	16B-/JJ)	.	.	.	.	.
4EE-'/	.	(16A/LL	.	4r	.	4ccc'\	.
.	.	16B-/	.	.	.	.	.
.	.	16A/	.	.	.	.	.
.	.	16G'/JJ)	.	.	.	.	.
4FF'/	.	(16G/LL	.	16r	.	4ff'\	.
.	.	16F/	.	(16d/LL	.	.	.
.	.	16E-/	.	16c/	.	.	.
.	.	16D/JJ	.	16B-/JJ	.	.	.
4FF'/	.	16C/LL	.	16A/LL	.	4aa'\	.
.	.	16A/	.	16c/	.	.	.
.	.	16B-/	.	16d/	.	.	.
.	.	16c/JJ)	.	16e-/JJ)	.	.	.
=197	=197	=197	=197	=197	=197	=197	=197
1r	.	4B-'/	.	4d'/	.	2r	.
.	.	4c'/	.	4cc'\	.	.	.
.	.	4F'/	.	4f'/	.	4eee-'\	.
.	.	4A'/	.	4a'/	.	4fff'\	.
=198	=198	=198	=198	=198	=198	=198	=198
4DD'/	.	(16B-/LL	.	(16b-/LL	.	4bb-'\	.
.	.	16d/	.	16dd/	.	.	.
.	.	16c/	.	16cc/	.	.	.
.	.	16B-/JJ	.	16b-/JJ	.	.	.
4DD'/	.	16F/LL	.	16f/LL	.	4ccc'\	.
.	.	16d/	.	16dd/	.	.	.
.	.	16c/	.	16cc/	.	.	.
.	.	16B-/JJ)	.	16b-/JJ)	.	.	.
4FF'/	.	(16B-/LL	.	(16b-/LL	.	4ff'\	.
.	.	16c/	.	16cc/	.	.	.
.	.	16B-/	.	16b-/	.	.	.
.	.	16A/JJ)	.	16a/JJ)	.	.	.
4FF'/	.	(16A/LL	.	(16a/LL	.	4aa'\	.
.	.	16G/	.	16g/	.	.	.
.	.	16F/	.	16f/	.	.	.
.	.	16E-/JJ)	.	16e-/JJ)	.	.	.
=199	=199	=199	=199	=199	=199	=199	=199
(4GG/	.	(16D/LL	.	4d'/	.	(4bb-\	.
.	.	16E-/	.	.	.	.	.
.	.	16D/	.	.	.	.	.
.	.	16C/JJ	.	.	.	.	.
4AA/	.	16D/LL	.	4d'/	.	8ccc\L	.
.	.	16c/	.	.	.	.	.
.	.	16B-/	.	.	.	8ff\J)	.
.	.	16A/JJ)	.	.	.	.	.
4BB-/	.	(16A/LL	.	4f'/	.	(4ddd\	.
.	.	16B-/	.	.	.	.	.
.	.	16A/	.	.	.	.	.
.	.	16G/JJ)	.	.	.	.	.
4C/)	.	(16G/LL	.	4f'/	.	4eee-\)	.
.	.	16A/	.	.	.	.	.
.	.	16G/	.	.	.	.	.
.	.	16F/JJ)	.	.	.	.	.
=200	=200	=200	=200	=200	=200	=200	=200
4BB-'/	p	4G'/	p	(16f/LL	p	4ddd'\	p
.	.	.	.	16dd/	.	.	.
.	.	.	.	16cc/	.	.	.
.	.	.	.	16b-/JJ)	.	.	.
4C'/	.	4G'/	.	(16b-/LL	.	4eeen'\	.
.	.	.	.	16cc/	.	.	.
.	.	.	.	16b-/	.	.	.
.	.	.	.	16a/JJ	.	.	.
4FF'/	.	4c'\	.	16g/LL	.	[2fff\	.
.	.	.	.	16a/	.	.	.
.	.	.	.	16g/	.	.	.
.	.	.	.	16f/JJ)	.	.	.
(16A\LL	.	4c'\	.	4cc'\	.	.	.
16B-\	.	.	.	.	.	.	.
16A\	.	.	.	.	.	.	.
16G\JJ)	.	.	.	.	.	.	.
=201	=201	=201	=201	=201	=201	=201	=201
(16G\LL	.	(4d\	.	4b-'\	.	1fff_	.
16A\	.	.	.	.	.	.	.
16G\	.	.	.	.	.	.	.
16F\JJ)	.	.	.	.	.	.	.
(16F\LL	.	4e-\	.	4cc'\	.	.	.
16G\	.	.	.	.	.	.	.
16F\	.	.	.	.	.	.	.
16E-\JJ)	.	.	.	.	.	.	.
(16E-\LL	.	4f\)	.	4f'/	.	.	.
16D\	.	.	.	.	.	.	.
16C\	.	.	.	.	.	.	.
16BB-\JJ)	.	.	.	.	.	.	.
4DD'/	.	4d'\	.	(16bb-\LL	.	.	.
.	.	.	.	16ccc\	.	.	.
.	.	.	.	16bb-\	.	.	.
.	.	.	.	16aa\JJ)	.	.	.
=202	=202	=202	=202	=202	=202	=202	=202
4EE-'/	.	4c'\	.	(16aa\LL	.	2.fff\]	.
.	.	.	.	16bb-\	.	.	.
.	.	.	.	16aa\	.	.	.
.	.	.	.	16gg\JJ)	.	.	.
4FF'/	.	4d'\	.	(16gg\LL	.	.	.
.	.	.	.	16aa\	.	.	.
.	.	.	.	16gg\	.	.	.
.	.	.	.	16ff\JJ	.	.	.
(16GG/LL	.	4F'/	.	16ee-\LL	.	.	.
16BB-/	.	.	.	16dd\	.	.	.
16AA/	.	.	.	16cc\	.	.	.
16GG/JJ)	.	.	.	16b-\JJ)	.	.	.
(16C/LL	.	4r	.	[4ee-\	.	(16eee-\LL	.
16D/	.	.	.	.	.	16fff\	.
16C/	.	.	.	.	.	16eee-\	.
16BB-/JJ)	.	.	.	.	.	16ddd\JJ)	.
=203	=203	=203	=203	=203	=203	=203	=203
(16AA/LL	.	(16c/LL	.	(16ee-\LL]	.	4ccc'\	.
16BB-/	.	16d/	.	16dd\	.	.	.
16AA/	.	16c/	.	16cc\	.	.	.
16GG/JJ)	.	16B-/JJ)	.	16ee-\JJ)	.	.	.
4FF#'/	.	8a'\L	.	8a'\L	.	(16ddd\LL	.
.	.	.	.	.	.	16eee-\	.
.	.	8A'\J	.	[8dd\J	.	16ddd\	.
.	.	.	.	.	.	16ccc\JJ)	.
(16GG/LL	.	(16B-/LL	.	(16dd\LL]	.	4bb-'\	.
16AA/	.	16c/	.	16cc\	.	.	.
16GG/	.	16B-/	.	16b-\	.	.	.
16FFn/JJ)	.	16A/JJ)	.	16dd\JJ)	.	.	.
4EEn'/	.	8G'/L	.	(16cc\LL	.	(16ccc\LL	.
.	.	.	.	16dd\	.	16bb-\	.
.	.	8C'/J	.	16cc\	.	16aa\	.
.	.	.	.	16b-\JJ)	.	16gg\JJ)	.
=204	=204	=204	=204	=204	=204	=204	=204
4FF'/	.	8c'\L	.	(16a/LL	.	(16ff\LL	.
.	.	.	.	16b-/	.	16gg\	.
.	.	8d'\J	.	16a/	.	16ff\	.
.	.	.	.	16g/JJ)	.	16ee-\JJ)	.
4BB-'/	.	(16b-\LL	.	4f'/	.	8dd'\L	.
.	.	16cc\	.	.	.	.	.
.	.	16b-\	.	.	.	8bb-'\J	.
.	.	16a\JJ)	.	.	.	.	.
8GG'/L	.	4b-'\	.	(16g/LL	.	(16ee-\LL	.
.	.	.	.	16a/	.	16ff\	.
8G'\J	.	.	.	16g/	.	16ee-\	.
.	.	.	.	16f/JJ)	.	16dd\JJ)	.
(16A\LL	.	8a'\L	.	8e-'/L	.	8cc'\L	.
16B-\	.	.	.	.	.	.	.
16A\	.	8en'\J	.	8cc'/J	.	8aa'\J	.
16G\JJ)	.	.	.	.	.	.	.
=205	=205	=205	=205	=205	=205	=205	=205
8F#'\L	.	4a'\	.	(16dd\LL	.	8dd'\L	.
.	.	.	.	16ee-\	.	.	.
8f#'\J	.	.	.	16dd\	.	8aa'\J	.
.	.	.	.	16cc\JJ)	.	.	.
8g'\L	.	4g'\	.	(16b-\LL	.	[4bb-\	.
.	.	.	.	16cc\	.	.	.
8fn'\J	.	.	.	16b-\	.	.	.
.	.	.	.	16a\JJ)	.	.	.
8e-'\L	.	8r	.	(16g/LL	.	8bb-\L]	.
.	.	.	.	16a/	.	.	.
8d'\	.	8g'\L	.	16g/	.	8bb-'\	.
.	.	.	.	16f/JJ)	.	.	.
8c'\	.	8a'\	.	(16e-/LL	.	8ccc'\	.
.	.	.	.	16f/	.	.	.
8B-'\J	.	8b-'\J	.	16e-/	.	8ddd'\J	.
.	.	.	.	16d/JJ)	.	.	.
=206	=206	=206	=206	=206	=206	=206	=206
8A\L	.	(16cc\LL	.	8c'/L	.	8eee-'\L	.
.	.	16dd\	.	.	.	.	.
8G\	.	16cc\	.	8g'/	.	8eeen'\J	.
.	.	16b-\JJ)	.	.	.	.	.
8F\	.	(16a\LL	.	8a'/	.	[4fff\	.
.	.	16b-\	.	.	.	.	.
8En\J	.	16a\	.	8b-'/J	.	.	.
.	.	16g\JJ)	.	.	.	.	.
8E-\L	.	(16f\LL	.	8a'/L	.	8fff\L]	.
.	.	16g\	.	.	.	.	.
8D\	.	16f\	.	8b-'/	.	8ggg'\J	.
.	.	16en\JJ)	.	.	.	.	.
8C\	.	(16e-\LL	.	8cc'/	.	[4aaa\	.
.	.	16f\	.	.	.	.	.
8BB-\J	.	16e-\	.	8dd'/J	.	.	.
.	.	16d\JJ)	.	.	.	.	.
=207	=207	=207	=207	=207	=207	=207	=207
8AA/L	.	(16c/LL	.	8cc'\L	.	8aaa\L]	.
.	.	16d/	.	.	.	.	.
8GG/	.	16c/	.	8dd'\	.	8bbb-'\J	.
.	.	16B-/JJ)	.	.	.	.	.
8FF/	.	(16A/LL	.	8ee-'\	.	4.cccc\	.
.	.	16B-/	.	.	.	.	.
8EEn/J	.	16A/	.	8een'\J	.	.	.
.	.	16G/JJ)	.	.	.	.	.
8EE-/L	.	(16F/LL	.	8ff\L	.	.	.
.	.	16G/	.	.	.	.	.
8C/	.	16F/	.	8f\	.	8aa'\	.
.	.	16E-/JJ)	.	.	.	.	.
8BB-/	.	(16D/LL	.	8ff\	.	8bb-'\L	.
.	.	16E-/	.	.	.	.	.
8AA/J	.	16D/	.	8ff\J	.	8ccc'\J	.
.	.	16C/JJ)	.	.	.	.	.
=208	=208	=208	=208	=208	=208	=208	=208
2BB-/	ff	2F/	ff	(16ff\LL	ff	2ddd\	ff
.	.	.	.	16gg\	.	.	.
.	.	.	.	16ff\	.	.	.
.	.	.	.	16ee-\JJ	.	.	.
.	.	.	.	16dd\LL	.	.	.
.	.	.	.	16ee-\	.	.	.
.	.	.	.	16dd\	.	.	.
.	.	.	.	16cc\JJ)	.	.	.
2EE-/	.	2B-/	.	(16cc\LL	.	2ggg\	.
.	.	.	.	16b-\	.	.	.
.	.	.	.	16a\	.	.	.
.	.	.	.	16b-\JJ	.	.	.
.	.	.	.	16cc\LL	.	.	.
.	.	.	.	16b-\	.	.	.
.	.	.	.	16a\	.	.	.
.	.	.	.	16g\JJ)	.	.	.
=209	=209	=209	=209	=209	=209	=209	=209
2DD/	.	(16f\LL	.	(4.b-\	.	2fff\	.
.	.	16g\	.	.	.	.	.
.	.	16f\	.	.	.	.	.
.	.	16e-\JJ	.	.	.	.	.
.	.	16d\LL	.	.	.	.	.
.	.	16e-\	.	.	.	.	.
.	.	16d\	.	16cc\LL	.	.	.
.	.	16c\JJ)	.	16dd\JJ)	.	.	.
(4CC/	.	(16c/LL	.	(8dd\L	.	2aaa\	.
.	.	16B-/	.	.	.	.	.
.	.	16A/	.	8ee-\)	.	.	.
.	.	16G/JJ)	.	.	.	.	.
4C/)	.	(16G/LL	.	8ee-'\	.	.	.
.	.	16F/	.	.	.	.	.
.	.	16En/	.	8ee-'\J	.	.	.
.	.	16F/JJ)	.	.	.	.	.
=210	=210	=210	=210	=210	=210	=210	=210
2BB-/	.	(16G/LL	.	(8ee-\L	.	2bbb-\	.
.	.	16F/	.	.	.	.	.
.	.	16En/	.	8dd\)	.	.	.
.	.	16F/JJ	.	.	.	.	.
.	.	16G/LL	.	8dd'\	.	.	.
.	.	16F/	.	.	.	.	.
.	.	16E/	.	8bb-'\J	.	.	.
.	.	16F/JJ)	.	.	.	.	.
2FF/	.	(16G/LL	.	(8bb-\L	.	2cccc\	.
.	.	16F/	.	.	.	.	.
.	.	16E/	.	8aa\)	.	.	.
.	.	16F/JJ)	.	.	.	.	.
.	.	(16F/LL	.	8aa'\	.	.	.
.	.	16E-/	.	.	.	.	.
.	.	16D/	.	8aa'\J	.	.	.
.	.	16E-/JJ)	.	.	.	.	.
=211	=211	=211	=211	=211	=211	=211	=211
8BB-/L	p	8D'/L	p	8bb-'\L	p	8bbb-'\L	p
8BB-'/	.	8B-'/	.	8b-'\	.	8b-'\	.
(8BB-/	.	(8B-/	.	(8b-\	.	(8b-\	.
8AA-/J)	.	8A-/J)	.	8a-\J)	.	8a-\J)	.
(8AA-/L	.	(8A-/L	.	(8a-/L	.	(8a-/L	.
8GG/	.	8G/	.	8g/	.	8g/	.
8BB-/J)	.	8B-/J)	.	8b-/J)	.	8b-/J)	.
8GG'/	.	8G'/	.	8g'/	.	8g'/	.
=212	=212	=212	=212	=212	=212	=212	=212
(8GG/L	.	(8G/L	.	(8g/L	.	(8g/L	.
8FF/	.	8F/	.	8f/	.	8f/	.
8BB-/J)	.	8B-/J)	.	8b-/J)	.	8b-/J)	.
8AA-'/	.	8A-'/	.	8a-'/	.	8a-'/	.
(8AA-/L	.	(8A-/L	.	(8a-/L	.	(8a-/L	.
8GG/	.	8G/	.	8g/	.	8g/	.
8BB-/J)	.	8B-/J)	.	8b-/J)	.	8b-/J)	.
8GG'/	.	8G'/	.	8g'/	.	8g/	.
=213	=213	=213	=213	=213	=213	=213	=213
(8GG/L	.	(8G/L	.	(8g/L	.	(8g/L	.
8FF/	.	8F/	.	8f/	.	8f/	.
8BB-/J)	.	8B-/J)	.	8b-/J)	.	8b-/J)	.
8EE-'/	.	8E-'/	.	8e-'/	.	8e-'/	.
(8EE-/L	.	(8E-/L	.	(8e-/L	.	(8e-/L	.
8DD/	.	8D/	.	8d/	.	8d/	.
8BB-/J)	.	8B-/J)	.	8b-/J)	.	8b-/J)	.
8DD'/	.	8D'/	.	8d'/	.	8d'/	.
=214	=214	=214	=214	=214	=214	=214	=214
(4DD/	.	(4D/	.	(4d/	.	(4d/	.
[4CC/	.	[4C/	.	[4c/	.	[4c/	.
4.CC/]	.	4.C/]	.	4.c/]	.	4.c/]	.
8BB-/)	.	8B-/)	.	8B-/)	.	8B-/)	.
=215	=215	=215	=215	=215	=215	=215	=215
(4BB-/	.	(4B-/	.	(4B-/	.	(4B-/	.
[4AAn/	.	[4An/	.	[4An/	.	[4An/	.
4AA/]	.	4A/])	.	4A/])	.	4A/])	.
4GG/)	.	(4B-/	.	(4en/	.	(4b-\	.
=216	=216	=216	=216	=216	=216	=216	=216
*M3/4	*M3/4	*M3/4	*M3/4	*M3/4	*M3/4	*M3/4	*M3/4
*MM54	*MM54	*MM54	*MM54	*MM54	*MM54	*MM54	*MM54
4FF/	.	4.c\	.	4.f/)	.	4.a/	.
(8F\L	.	.	.	.	.	.	.
8D\	.	8Bn\L	.	(8f/L	.	8a-\L	.
8E-\	.	8c\	.	8e-/	.	8g\	.
8C\J)	.	8g\J)	.	8cc/J)	.	8ee-\J)	.
=217	=217	=217	=217	=217	=217	=217	=217
(8D\L	p	(8f\L	p	(8b-/L	p	(4dd\	p
8E-\	.	8b-\	.	8f/	.	.	.
8F\J)	.	8a\J)	.	8f/J)	.	8cc\)	.
8r	.	8r	.	8r	.	8r	.
*clefC4	*clefC4	*	*	*	*	*	*
(8f\L	.	(8d\L	.	(8f/L	.	(4bb-\	.
8B-\J)	.	8b-\J)	.	8dd/J)	.	.	.
=218	=218	=218	=218	=218	=218	=218	=218
(4.c\	.	4.f\	.	(4.ee-\	.	4.aa\	.
8d\L	.	(8f\L	.	8bn\L	.	8aa-\L	.
8e-\	.	8g\	.	8cc\	.	8gg\	.
8f\J)	.	8cc\J)	.	8ee-\J)	.	8aan\J)	.
=219	=219	=219	=219	=219	=219	=219	=219
(4f#\	p	(4cc\	p	(4ee-\	p	(4aa\	p
8g\)	.	8b-\)	.	8dd\)	.	8bb-\)	.
8r	.	8r	.	8r	.	8r	.
*clefF4	*clefF4	*	*	*	*	*	*
(4FF#/	.	(4E-/	.	(4A/	.	4r	.
=220	=220	=220	=220	=220	=220	=220	=220
*met(C)	*met(C)	*met(C)	*met(C)	*met(C)	*met(C)	*met(C)	*met(C)
*M4/4	*M4/4	*M4/4	*M4/4	*M4/4	*M4/4	*M4/4	*M4/4
*MM120	*MM120	*MM120	*MM120	*MM120	*MM120	*MM120	*MM120
4GG/)	f	4D/)	f	4B-/)	f	16bb-\LL	f
.	.	.	.	.	.	16ccc\	.
.	.	.	.	.	.	16bb-\	.
.	.	.	.	.	.	16aa\JJ	.
4r	.	8g\L	.	8b-\L	.	16gg\LL	.
.	.	.	.	.	.	16aa\	.
.	.	8g\J	.	8b-\J	.	16gg\	.
.	.	.	.	.	.	16ff\JJ	.
2r	.	4r	.	4r	.	16ee-\LL	.
.	.	.	.	.	.	16ff\	.
.	.	.	.	.	.	16ee-\	.
.	.	.	.	.	.	16dd\JJ	.
.	.	8g\L	.	8ee-\L	.	16cc\LL	.
.	.	.	.	.	.	16b-\J	.
.	.	8g\J	.	8ee-\J	.	8bb-\J	.
=221	=221	=221	=221	=221	=221	=221	=221
*M3/4	*M3/4	*M3/4	*M3/4	*M3/4	*M3/4	*M3/4	*M3/4
*MM54	*MM54	*MM54	*MM54	*MM54	*MM54	*MM54	*MM54
4r	.	(4g\	.	(4ee-\	.	(4bbn\	.
4r	.	8a\)	.	8cc\)	.	8ccc\)	.
.	.	8r	.	8r	.	8r	.
(4GG/	.	(4E-/	.	(4Bn/	.	4r	.
=222	=222	=222	=222	=222	=222	=222	=222
*met(C)	*met(C)	*met(C)	*met(C)	*met(C)	*met(C)	*met(C)	*met(C)
*M4/4	*M4/4	*M4/4	*M4/4	*M4/4	*M4/4	*M4/4	*M4/4
*MM120	*MM120	*MM120	*MM120	*MM120	*MM120	*MM120	*MM120
4AA/)	f	4C/)	f	4c/)	f	16ccc\LL	f
.	.	.	.	.	.	16ddd\	.
.	.	.	.	.	.	16ccc\	.
.	.	.	.	.	.	16bb-\JJ	.
4r	.	8f\L	.	8a/L	.	16aa\LL	.
.	.	.	.	.	.	16bb-\	.
.	.	8f\J	.	8a/J	.	16aa\	.
.	.	.	.	.	.	16gg\JJ	.
2r	.	4r	.	4r	.	16ff\LL	.
.	.	.	.	.	.	16gg\	.
.	.	.	.	.	.	16ff\	.
.	.	.	.	.	.	16ee-\JJ	.
.	.	8f\L	.	8a/L	.	16dd\LL	.
.	.	.	.	.	.	16cc\J	.
.	.	8f\J	.	8a/J	.	8ccc\J	.
=223	=223	=223	=223	=223	=223	=223	=223
*M3/4	*M3/4	*M3/4	*M3/4	*M3/4	*M3/4	*M3/4	*M3/4
4r	.	(4f\	.	(4a/	.	(4ccc#\	.
4r	.	8B-/)	.	8b-/)	.	8ddd\)	.
.	.	8r	.	8r	.	8r	.
4F\	.	(4A/	.	(4c#/	.	4r	.
=224	=224	=224	=224	=224	=224	=224	=224
*met(C)	*met(C)	*met(C)	*met(C)	*met(C)	*met(C)	*met(C)	*met(C)
*M4/4	*M4/4	*M4/4	*M4/4	*M4/4	*M4/4	*M4/4	*M4/4
*MM120	*MM120	*MM120	*MM120	*MM120	*MM120	*MM120	*MM120
4F\	f	4B-/)	f	4d/)	f	16ddd\LL	f
.	.	.	.	.	.	16eee-\	.
.	.	.	.	.	.	16ddd\	.
.	.	.	.	.	.	16ccc\JJ	.
8F\L	.	8B-/L	.	8d/L	.	16bb-\LL	.
.	.	.	.	.	.	16ccc\	.
8F\J	.	8B-/J	.	8d/J	.	16bb-\	.
.	.	.	.	.	.	16aa\JJ	.
4r	.	4r	.	4r	.	16gg\LL	.
.	.	.	.	.	.	16aa\	.
.	.	.	.	.	.	16gg\	.
.	.	.	.	.	.	16ff\JJ	.
*clefC4	*clefC4	*	*	*	*	*	*
8f\L	.	8b-\L	.	8dd\L	.	16ee-\LL	.
.	.	.	.	.	.	16ff\	.
8f\J	.	8b-\J	.	8dd\J	.	16ee-\	.
.	.	.	.	.	.	16dd\JJ	.
=225	=225	=225	=225	=225	=225	=225	=225
[4f\	p	[4b-\	p	(4dd\	p	(4ddd\	p
8f\L]	.	8b-\L]	.	8dd-\L)	.	8eee-\L)	.
8f\J	.	8b-\J	.	8dd-\J	.	8eeen\J	.
[2f\	.	(4b-\	.	(4dd-\	.	(4eee\	.
.	.	8a\L)	.	8cc\L)	.	8fff\L)	.
.	.	8a\J	.	8cc\J	.	8fff#\J	.
=226	=226	=226	=226	=226	=226	=226	=226
2f\_	.	(4a\	.	(4cc\	.	(4fff#\	.
.	.	8bn\L)	.	8ddn\L)	.	8ggg\L)	.
.	.	8b\J	.	8dd\J	.	8fffn\J	.
4f\]	.	(4b\	.	(4dd\	.	(4fff\	.
8f\L	.	8cc\L)	.	8ee-\L)	.	8eee-\L)	.
[8f\J	.	8b-\J	.	8dd-\J	.	8eeen\J	.
=227	=227	=227	=227	=227	=227	=227	=227
4f\]	.	(4b-\	.	(4dd-\	.	(4eeen\	.
8f\L	.	8a\L)	.	8cc\L)	.	8fff\L)	.
[8f\J	.	8a\J	.	8cc\J	.	8eee-\J	.
4f\]	.	(4a\	.	(4cc\	.	(4eee-\	.
8f\L	.	8a-\L)	.	8b-\L)	.	8ddd\L)	.
[8f\J	.	8a-\J	.	8b-\J	.	8ddd\J	.
=228	=228	=228	=228	=228	=228	=228	=228
(4f\]	.	(4a-\	.	[4b-\	.	(4ddd\	.
8e-\L)	.	8g\L)	.	8b-\L]	.	8eee-\L)	.
8e-\J	.	8g\J	.	8b-\J	.	8gg\J	.
[4e-\	.	4g\	.	[4b-\	.	(4gg\	.
8e-\L]	.	8g-\L	.	8b-\L]	.	8bb-\L)	.
(8e-\J	.	(8g-\J	.	8b-\J	.	8bb-\J	.
=229	=229	=229	=229	=229	=229	=229	=229
4d\	p	4f\	p	(4b-\	p	(8bb-\L	p
.	.	.	.	.	.	8ddd\	.
4c\	.	4e-\	.	4cc\	.	8ccc\	.
.	.	.	.	.	.	8aa\J	.
4B-\	.	4d\	.	4ddn\	.	8ddd\L	.
.	.	.	.	.	.	8fff\	.
4E-/	.	[4G/	.	4cc\	.	8eee-\	.
.	.	.	.	.	.	8ccc\J	.
=230	=230	=230	=230	=230	=230	=230	=230
4En/	.	4G/]	.	4b-\	.	8bb-\L	.
.	.	.	.	.	.	8ddd\	.
2.F/)	.	4c\	.	4a/	.	8ccc\	.
.	.	.	.	.	.	8aa\J	.
.	.	4e-\	.	4cc\	.	8gg\L	.
.	.	.	.	.	.	8ff\	.
.	.	4c\)	.	4e-/)	.	8gg\	.
.	.	.	.	.	.	8aa\J)	.
=231	=231	=231	=231	=231	=231	=231	=231
*clefF4	*clefF4	*	*	*	*	*	*
1BB-	pp	(16B-/LL	pp	4d/	pp	4r	pp
.	.	16e-/	.	.	.	.	.
.	.	16d/	.	.	.	.	.
.	.	16c/JJ	.	.	.	.	.
.	.	16B-/LL	.	4r	.	4bb-\	.
.	.	16c/	.	.	.	.	.
.	.	16B-/	.	.	.	.	.
.	.	16A/JJ	.	.	.	.	.
.	.	16G/LL	.	2r	.	4bb-\	.
.	.	16A/	.	.	.	.	.
.	.	16G/	.	.	.	.	.
.	.	16F/JJ	.	.	.	.	.
.	.	16E-/LL	.	.	.	8bb-\L	.
.	.	16F/	.	.	.	.	.
.	.	16E-/	.	.	.	8bb-\J	.
.	.	16D/JJ)	.	.	.	.	.
=232	=232	=232	=232	=232	=232	=232	=232
4r	.	1C	.	(16A/LL	.	1eee-	.
.	.	.	.	16G/	.	.	.
.	.	.	.	16A/	.	.	.
.	.	.	.	16B-/JJ	.	.	.
4FF/	.	.	.	16c/LL	.	.	.
.	.	.	.	16B-/	.	.	.
.	.	.	.	16c/	.	.	.
.	.	.	.	16d/JJ	.	.	.
4FF/	.	.	.	16e-/LL	.	.	.
.	.	.	.	16d/	.	.	.
.	.	.	.	16e-/	.	.	.
.	.	.	.	16f/JJ	.	.	.
8FF/L	.	.	.	16g/LL	.	.	.
.	.	.	.	16f/	.	.	.
8FF/J	.	.	.	16g/	.	.	.
.	.	.	.	16a/JJ)	.	.	.
=233	=233	=233	=233	=233	=233	=233	=233
1BB-	pp	(16d/LL	pp	1b-	pp	4r	pp
.	.	16e-/	.	.	.	.	.
.	.	16d/	.	.	.	.	.
.	.	16c/JJ	.	.	.	.	.
.	.	16B-/LL	.	.	.	4bb-\	.
.	.	16c/	.	.	.	.	.
.	.	16B-/	.	.	.	.	.
.	.	16A/JJ	.	.	.	.	.
.	.	16G/LL	.	.	.	4bb-\	.
.	.	16A/	.	.	.	.	.
.	.	16G/	.	.	.	.	.
.	.	16F/JJ	.	.	.	.	.
.	.	16E-/LL	.	.	.	8bb-\L	.
.	.	16F/	.	.	.	.	.
.	.	16E-/	.	.	.	8bb-\J	.
.	.	16D/JJ)	.	.	.	.	.
=234	=234	=234	=234	=234	=234	=234	=234
4r	.	1C	.	(16A/LL	.	2.eee-\	.
.	.	.	.	16G/	.	.	.
.	.	.	.	16A/	.	.	.
.	.	.	.	16B-/JJ	.	.	.
4FF/	.	.	.	16c/LL	.	.	.
.	.	.	.	16B-/	.	.	.
.	.	.	.	16c/	.	.	.
.	.	.	.	16d/JJ	.	.	.
4FF/	.	.	.	16e-/LL	.	.	.
.	.	.	.	16d/	.	.	.
.	.	.	.	16e-/	.	.	.
.	.	.	.	16f/JJ	.	.	.
8FF/L	.	.	.	16g/LL	.	8aa\L	.
.	.	.	.	16f/	.	.	.
8FF/J	.	.	.	16g/	.	8aa\J	.
.	.	.	.	16a/JJ)	.	.	.
=235	=235	=235	=235	=235	=235	=235	=235
4BB-'/	f	4D'/	f	4f'/	f	4bb-'\	f
8FF/L	.	8A/L	.	8e-/L	.	8ccc\L	.
8FF/J	.	8A/J	.	8e-/J	.	8ccc\J	.
4BB-'/	.	4B-'/	.	4d'/	.	4bb-'\	.
8FF/L	.	8f\L	.	8f/L 8cc/	.	8cc\L 8aa\	.
8FF/J	.	8f\J	.	8f/J 8cc/	.	8cc\J 8aa\	.
=236	=236	=236	=236	=236	=236	=236	=236
4BB-/	.	4D/ 4B-/	.	4B-/ 4f/ 4dd/	.	4f\ 4dd\ 4bb-\	.
4r	.	4r	.	4r	.	4r	.
2r	.	2r	.	2r	.	2r	.
==	==	==	==	==	==	==	==
*-	*-	*-	*-	*-	*-	*-	*-
!!!ENC: Craig Stuart Sapp
!!!END: 2004/09/10/
